;This Gcode has been generated specifically for the LulzBot Mini
;Basic settings: Layer height: 0.38 Walls: 1 Fill: 20
;Filament Diameter: 2.85
;Nozzle Size: 0.5
G21                          ; metric values
G90                          ; absolute positioning
M82                          ; set extruder to absolute mode
M107                         ; start with the fan off
G92 E0                       ; set extruder position to 0
M140 S60; get bed heating up
G28                          ; home all
M109 S140                    ; set to cleaning temp and wait
G1 Z150 E-30 F75             ; suck up XXmm of filament
M109 S140                    ; heat up rest of way
G1 X45 Y174 F11520           ; move behind scraper
G1 Z0  F1200                 ; CRITICAL: set Z to height of top of scraper
G1 X45 Y174 Z-.5 F4000       ; wiping ; plunge into wipe pad
G1 X55 Y172 Z-.5 F4000       ; wiping
G1 X45 Y174 Z0 F4000         ; wiping
G1 X55 Y172 F4000            ; wiping
G1 X45 Y174 F4000            ; wiping
G1 X55 Y172 F4000            ; wiping
G1 X45 Y174 F4000            ; wiping
G1 X55 Y172 F4000            ; wiping
G1 X60 Y174 F4000            ; wiping
G1 X80 Y172 F4000            ; wiping
G1 X60 Y174 F4000            ; wiping
G1 X80 Y172 F4000            ; wiping
G1 X60 Y174 F4000            ; wiping
G1 X90 Y172 F4000            ; wiping
G1 X80 Y174 F4000            ; wiping
G1 X100 Y172 F4000           ; wiping
G1 X80 Y174 F4000            ; wiping
G1 X100 Y172 F4000           ; wiping
G1 X80 Y174 F4000            ; wiping
G1 X100 Y172 F4000           ; wiping
G1 X110 Y174 F4000           ; wiping
G1 X100 Y172 F4000           ; wiping
G1 X110 Y174 F4000           ; wiping
G1 X100 Y172 F4000           ; wiping
G1 X110 Y174 F4000           ; wiping
G1 X115 Y172 Z-0.5 F1000     ; wipe slower and bury noz in cleanish area
G1 Z10                       ; raise z
G28 X0 Y0                    ; home x and y
M109 S140                    ; set to probing temp
M204 S300                    ; Set probing acceleration
G29                          ; Probe
M204 S2000                   ; Restore standard acceleration
G1 X5 Y15 Z10 F5000          ; get out the way
G4 S1                        ; pause
M400                         ; clear buffer
M109 S205    ; set extruder temp and wait
G4 S15                       ; wait for bed to temp up
G1 Z2 E0 F75                 ; extrude filament back into nozzle
M140 S60; get bed temping up during first layer

;Layer count: 31
;LAYER:0
M107
G0 F10500 X62.968 Y64.739 Z0.425
;TYPE:SKIRT
G1 F900 X70.163 Y64.739 E0.29959
G1 X70.168 Y64.735 E0.29985
G1 X74.378 Y64.733 E0.47515
G1 X74.378 Y59.801 E0.68051
G1 X91.968 Y59.801 E1.41292
G1 X91.968 Y64.669 E1.61561
G1 X100.748 Y64.669 E1.98119
G1 X100.748 Y91.100 E3.08172
G1 X95.128 Y91.100 E3.31573
G1 X95.128 Y91.294 E3.32381
G1 X91.968 Y91.294 E3.45538
G1 X91.968 Y96.199 E3.65962
G1 X74.378 Y96.199 E4.39203
G1 X74.378 Y91.294 E4.59626
G1 X62.968 Y91.294 E5.07135
G1 X62.968 Y64.739 E6.17705
G0 F10500 X63.593 Y65.364
G1 F900 X70.388 Y65.364 E6.45998
G1 X70.394 Y65.359 E6.46030
G1 X75.003 Y65.358 E6.65221
G1 X75.003 Y60.426 E6.85757
G1 X91.343 Y60.426 E7.53794
G1 X91.343 Y65.294 E7.74063
G1 X100.123 Y65.294 E8.10621
G1 X100.123 Y90.475 E9.15470
G1 X94.503 Y90.475 E9.38870
G1 X94.503 Y90.669 E9.39678
G1 X91.343 Y90.669 E9.52835
G1 X91.343 Y95.574 E9.73259
G1 X75.003 Y95.574 E10.41295
G1 X75.003 Y90.669 E10.61719
G1 X63.593 Y90.669 E11.09228
G1 X63.593 Y65.364 E12.14592
G1 F600 E10.64592
G1 Z0.525
G0 F10500 X67.842 Y69.613
;TYPE:WALL-INNER
G1 Z0.425
G1 F600 E12.14592
G1 F900 X75.732 Y69.613 E12.47445
G1 X75.732 Y86.420 E13.17426
G1 X67.842 Y86.420 E13.50278
G1 X67.842 Y69.613 E14.20259
G0 F10500 X67.217 Y68.988
;TYPE:WALL-OUTER
G1 F900 X71.701 Y68.988 E14.38929
G1 X71.794 Y68.911 E14.39432
G1 X71.687 Y68.782 E14.40130
G1 X71.879 Y68.365 E14.42041
G1 X71.881 Y68.988 E14.44636
G1 X76.357 Y68.988 E14.63273
G1 X76.357 Y87.045 E15.38458
G1 X67.217 Y87.045 E15.76515
G1 X67.217 Y68.988 E16.51701
G0 F10500 X67.630 Y69.311
G0 X68.061 Y70.271
;TYPE:SKIN
G1 F900 X75.513 Y77.723 E16.95582
G0 F10500 X75.513 Y78.607
G1 F900 X68.061 Y71.155 E17.39463
G0 F10500 X68.061 Y72.039
G1 F900 X75.513 Y79.491 E17.83344
G0 F10500 X75.513 Y80.375
G1 F900 X68.061 Y72.923 E18.27225
G0 F10500 X68.061 Y73.807
G1 F900 X75.513 Y81.259 E18.71106
G0 F10500 X75.513 Y82.143
G1 F900 X68.061 Y74.690 E19.14990
G0 F10500 X68.061 Y75.574
G1 F900 X75.513 Y83.027 E19.58874
G0 F10500 X75.513 Y83.910
G1 F900 X68.061 Y76.458 E20.02755
G0 F10500 X68.061 Y77.342
G1 F900 X75.513 Y84.794 E20.46637
G0 F10500 X75.513 Y85.678
G1 F900 X68.061 Y78.226 E20.90518
G0 F10500 X68.061 Y79.110
G1 F900 X75.150 Y86.199 E21.32261
G0 F10500 X74.266 Y86.199
G1 F900 X68.061 Y79.994 E21.68799
G0 F10500 X75.513 Y76.839
G1 F900 X68.505 Y69.831 E22.10066
G0 F10500 X69.389 Y69.831
G1 F900 X75.513 Y75.955 E22.46127
G0 F10500 X75.513 Y75.072
G1 F900 X70.272 Y69.831 E22.76989
G0 F10500 X71.156 Y69.831
G1 F900 X75.513 Y74.188 E23.02645
G0 F10500 X75.513 Y73.304
G1 F900 X72.040 Y69.831 E23.23096
G0 F10500 X72.924 Y69.831
G1 F900 X75.513 Y72.420 E23.38341
G0 F10500 X75.513 Y71.536
G1 F900 X73.808 Y69.831 E23.48381
G0 F10500 X74.692 Y69.831
G1 F900 X75.513 Y70.652 E23.53215
G0 F10500 X68.061 Y80.878
G1 F900 X73.382 Y86.199 E23.84548
G0 F10500 X72.498 Y86.199
G1 F900 X68.061 Y81.762 E24.10675
G0 F10500 X68.061 Y82.645
G1 F900 X71.615 Y86.199 E24.31603
G0 F10500 X70.731 Y86.199
G1 F900 X68.061 Y83.529 E24.47325
G0 F10500 X68.061 Y84.413
G1 F900 X69.847 Y86.199 E24.57842
G0 F10500 X68.963 Y86.199
G1 F900 X68.061 Y85.297 E24.63153
G1 F600 E23.13153
G1 Z0.525
G0 F10500 X79.347 Y86.420
;TYPE:WALL-INNER
G1 Z0.425
G1 F600 E24.63153
G1 F900 X79.347 Y69.613 E25.33134
G1 X80.313 Y69.613 E25.37157
G1 X80.313 Y65.972 E25.52317
G1 X79.252 Y65.972 E25.56735
G1 X79.252 Y64.675 E25.62135
G1 X87.094 Y64.675 E25.94788
G1 X87.094 Y65.972 E26.00188
G1 X81.171 Y65.972 E26.24850
G1 X81.171 Y69.613 E26.40011
G1 X90.254 Y69.613 E26.77830
G1 X90.254 Y71.860 E26.87186
G1 X94.658 Y71.860 E27.05524
G1 X94.658 Y69.543 E27.15171
G1 X95.874 Y69.543 E27.20234
G1 X95.874 Y75.469 E27.44909
G1 X94.658 Y75.469 E27.49972
G1 X94.658 Y73.158 E27.59595
G1 X90.254 Y73.158 E27.77932
G1 X90.254 Y82.826 E28.18188
G1 X94.658 Y82.826 E28.36525
G1 X94.658 Y80.738 E28.45219
G1 X95.874 Y80.738 E28.50282
G1 X95.874 Y86.226 E28.73133
G1 X94.658 Y86.226 E28.78196
G1 X94.658 Y84.123 E28.86953
G1 X90.254 Y84.123 E29.05290
G1 X90.254 Y86.420 E29.14854
G1 X81.171 Y86.420 E29.52674
G1 X81.171 Y90.028 E29.67697
G1 X87.094 Y90.028 E29.92359
G1 X87.094 Y91.325 E29.97760
G1 X79.252 Y91.325 E30.30412
G1 X79.252 Y90.028 E30.35813
G1 X80.313 Y90.028 E30.40230
G1 X80.313 Y86.420 E30.55253
G1 X79.347 Y86.420 E30.59276
G0 F10500 X79.688 Y87.045
;TYPE:WALL-OUTER
G1 F900 X78.722 Y87.045 E30.63298
G1 X78.722 Y68.988 E31.38483
G1 X79.688 Y68.988 E31.42506
G1 X79.688 Y66.597 E31.52461
G1 X78.627 Y66.597 E31.56879
G1 X78.627 Y64.050 E31.67484
G1 X87.719 Y64.050 E32.05342
G1 X87.719 Y66.597 E32.15947
G1 X81.796 Y66.597 E32.40609
G1 X81.796 Y68.988 E32.50564
G1 X90.879 Y68.988 E32.88384
G1 X90.879 Y71.235 E32.97740
G1 X94.033 Y71.235 E33.10873
G1 X94.033 Y68.918 E33.20520
G1 X96.499 Y68.918 E33.30788
G1 X96.499 Y76.094 E33.60668
G1 X94.033 Y76.094 E33.70936
G1 X94.033 Y73.783 E33.80558
G1 X90.879 Y73.783 E33.93691
G1 X90.879 Y82.201 E34.28742
G1 X94.033 Y82.201 E34.41874
G1 X94.033 Y80.113 E34.50568
G1 X96.499 Y80.113 E34.60836
G1 X96.499 Y86.851 E34.88892
G1 X94.033 Y86.851 E34.99160
G1 X94.033 Y84.748 E35.07916
G1 X90.879 Y84.748 E35.21049
G1 X90.879 Y87.045 E35.30613
G1 X81.796 Y87.045 E35.68433
G1 X81.796 Y89.403 E35.78251
G1 X87.719 Y89.403 E36.02913
G1 X87.719 Y91.950 E36.13518
G1 X78.627 Y91.950 E36.51376
G1 X78.627 Y89.403 E36.61981
G1 X79.688 Y89.403 E36.66399
G1 X79.688 Y87.045 E36.76217
G0 F10500 X80.453 Y86.199
;TYPE:SKIN
G1 F900 X79.565 Y85.311 E36.81446
G0 F10500 X79.565 Y84.427
G1 F900 X81.338 Y86.200 E36.91886
G0 F10500 X80.952 Y86.698
G1 F900 X80.531 Y86.719 E36.94366
G1 X80.741 Y87.813 E36.96844
G1 X80.741 Y88.697 E36.99318
G1 X80.741 Y89.581 E37.01791
G1 X80.958 Y90.239 E37.04266
G1 X81.836 Y90.675 E37.09320
G1 X82.719 Y90.675 E37.14374
G1 X83.603 Y90.675 E37.19427
G1 X84.487 Y90.675 E37.24480
G1 X85.371 Y90.675 E37.29533
G1 X86.558 Y90.979 E37.34586
G1 X86.268 Y90.246 E37.37868
G0 F10500 X81.342 Y89.857
G0 X81.342 Y86.591
G0 X86.641 Y86.200
G1 F900 X79.565 Y79.123 E37.79538
G0 F10500 X79.565 Y78.239
G1 F900 X87.525 Y86.200 E38.26413
G0 F10500 X88.409 Y86.200
G1 F900 X79.565 Y77.356 E38.78491
G0 F10500 X79.565 Y76.472
G1 F900 X89.293 Y86.200 E39.35774
G0 F10500 X90.034 Y86.057
G1 F900 X79.565 Y75.588 E39.97421
G0 F10500 X79.565 Y74.704
G1 F900 X90.034 Y85.173 E40.59068
G0 F10500 X90.034 Y84.289
G1 F900 X79.565 Y73.820 E41.20714
G0 F10500 X79.565 Y72.936
G1 F900 X90.532 Y83.903 E41.85293
G0 F10500 X90.557 Y83.045
G1 F900 X91.428 Y83.474 E41.90352
G1 X92.312 Y83.474 E41.95405
G1 X93.196 Y83.474 E42.00452
G1 X94.067 Y83.903 E42.04494
G0 F10500 X94.093 Y83.045
G1 F900 X95.654 Y84.606 E42.13686
G0 F10500 X94.876 Y84.712
G1 F900 X95.470 Y85.748 E42.18261
G1 X94.876 Y85.596 E42.20814
G0 F10500 X95.654 Y83.722
G1 F900 X95.265 Y82.891 E42.25392
G1 X95.265 Y82.007 E42.29968
G1 X95.208 Y81.066 E42.34547
G1 X95.654 Y81.071 E42.36404
G0 F10500 X94.487 Y82.655
G0 X90.425 Y82.655
G0 X90.034 Y80.754
G1 F900 X79.565 Y70.284 E42.98054
G0 F10500 X79.996 Y69.832
G1 F900 X90.034 Y79.870 E43.57162
G0 F10500 X90.034 Y78.986
G1 F900 X80.531 Y69.483 E44.13121
G0 F10500 X80.951 Y69.019
G1 F900 X80.741 Y68.367 E44.15589
G1 X80.741 Y67.484 E44.18054
G1 X80.741 Y66.600 E44.20522
G1 X80.433 Y65.850 E44.22990
G1 X79.477 Y64.894 E44.28620
G0 F10500 X80.142 Y66.143
G0 X80.142 Y69.442
G0 X79.565 Y71.168
G1 F900 X90.034 Y81.638 E44.90269
G0 F10500 X90.034 Y82.522
G1 F900 X79.565 Y72.052 E45.51919
G0 F10500 X81.764 Y69.832
G1 F900 X90.034 Y78.102 E46.00617
G0 F10500 X90.034 Y77.218
G1 F900 X82.648 Y69.832 E46.44109
G0 F10500 X83.531 Y69.832
G1 F900 X90.034 Y76.335 E46.82402
G0 F10500 X90.034 Y75.451
G1 F900 X84.415 Y69.832 E47.15490
G0 F10500 X85.299 Y69.832
G1 F900 X90.034 Y74.567 E47.43372
G0 F10500 X90.034 Y73.683
G1 F900 X86.183 Y69.832 E47.66048
G0 F10500 X87.067 Y69.832
G1 F900 X90.173 Y72.938 E47.84338
G0 F10500 X90.197 Y72.078
G1 F900 X91.069 Y72.508 E47.89397
G1 X91.953 Y72.508 E47.94455
G1 X92.837 Y72.508 E47.99514
G1 X93.721 Y72.508 E48.04573
G1 X94.734 Y73.079 E48.09640
G1 X95.265 Y74.052 E48.14218
G1 X95.395 Y75.066 E48.18795
G1 X94.876 Y74.989 E48.20980
G0 F10500 X95.654 Y73.116
G1 F900 X94.617 Y72.078 E48.27089
G0 F10500 X94.876 Y71.453
G1 F900 X95.654 Y71.790 E48.31670
G1 X95.265 Y70.516 E48.36249
G1 X94.952 Y69.762 E48.39648
G0 F10500 X94.487 Y71.689
G0 X90.425 Y71.689
G0 X90.034 Y70.147
G1 F900 X89.719 Y69.832 E48.41503
G0 F10500 X88.835 Y69.832
G1 F900 X90.034 Y71.031 E48.48563
G0 F10500 X90.034 Y71.915
G1 F900 X87.951 Y69.832 E48.60829
G0 F10500 X81.342 Y69.442
G0 X81.342 Y66.143
G0 X86.523 Y65.753
G1 F900 X85.651 Y65.323 E48.65881
G1 X84.767 Y65.323 E48.70934
G1 X83.884 Y65.323 E48.75988
G1 X83.000 Y65.323 E48.81046
G1 X82.116 Y65.323 E48.86099
G1 X81.232 Y65.323 E48.91152
G1 X80.361 Y64.894 E48.95195
G0 F10500 X86.548 Y64.894
G1 F900 X86.874 Y65.219 E48.97112
G0 F10500 X81.342 Y66.143
G0 X81.342 Y69.442
G0 X79.565 Y80.007
G1 F900 X85.757 Y86.200 E49.33576
G0 F10500 X84.874 Y86.200
G1 F900 X79.565 Y80.891 E49.64838
G0 F10500 X79.565 Y81.775
G1 F900 X83.990 Y86.200 E49.90895
G0 F10500 X83.106 Y86.200
G1 F900 X79.565 Y82.659 E50.11746
G0 F10500 X79.565 Y83.543
G1 F900 X82.222 Y86.200 E50.27392
G0 F10500 X81.342 Y86.591
G0 X80.080 Y90.245
G1 F900 X80.497 Y91.105 E50.32454
G1 X79.471 Y90.520 E50.37372
;LAYER:1
M106 S191
G1 F600 E48.87372
G1 Z0.525
G0 F10500 X75.919 Y86.607 Z0.805
;TYPE:WALL-INNER
G1 Z0.805
G1 F600 E50.37372
G1 F1140 X67.655 Y86.607 E50.61985
G1 X67.655 Y69.426 E51.13155
G1 X72.333 Y69.426 E51.27088
G1 X72.333 Y69.010 E51.28327
G1 X73.261 Y69.009 E51.31091
G1 X73.261 Y69.426 E51.32333
G1 X75.919 Y69.426 E51.40249
G1 X75.919 Y86.607 E51.91420
G0 F10500 X76.419 Y87.107
;TYPE:WALL-OUTER
G1 F1080 X67.155 Y87.107 E52.19012
G1 X67.155 Y68.926 E52.73161
G1 X71.833 Y68.926 E52.87093
G1 X71.833 Y68.510 E52.88332
G1 X73.761 Y68.509 E52.94075
G1 X73.761 Y68.926 E52.95317
G1 X76.419 Y68.926 E53.03233
G1 X76.419 Y87.107 E53.57382
G0 F10500 X75.142 Y86.431
;TYPE:SKIN
G1 F1380 X75.743 Y85.830 E53.59914
G0 F10500 X75.743 Y85.123
G1 F1380 X74.435 Y86.431 E53.65423
G0 F10500 X73.728 Y86.431
G1 F1380 X75.743 Y84.416 E53.73910
G0 F10500 X75.743 Y83.709
G1 F1380 X73.021 Y86.431 E53.85375
G0 F10500 X72.314 Y86.431
G1 F1380 X75.743 Y83.002 E53.99818
G0 F10500 X75.743 Y82.295
G1 F1380 X71.607 Y86.431 E54.17239
G0 F10500 X70.900 Y86.431
G1 F1380 X75.743 Y81.588 E54.37638
G0 F10500 X75.743 Y80.880
G1 F1380 X70.193 Y86.431 E54.61016
G0 F10500 X69.485 Y86.431
G1 F1380 X75.743 Y80.173 E54.87375
G0 F10500 X75.743 Y79.466
G1 F1380 X68.778 Y86.431 E55.16712
G0 F10500 X68.071 Y86.431
G1 F1380 X75.743 Y78.759 E55.49026
G0 F10500 X75.743 Y78.052
G1 F1380 X67.829 Y85.965 E55.82358
G0 F10500 X67.829 Y85.258
G1 F1380 X75.743 Y77.345 E56.15690
G0 F10500 X75.743 Y76.638
G1 F1380 X67.829 Y84.551 E56.49021
G0 F10500 X67.829 Y83.844
G1 F1380 X75.743 Y75.931 E56.82353
G0 F10500 X75.743 Y75.224
G1 F1380 X67.829 Y83.137 E57.15685
G0 F10500 X67.829 Y82.430
G1 F1380 X75.743 Y74.517 E57.49017
G0 F10500 X75.743 Y73.809
G1 F1380 X67.829 Y81.723 E57.82350
G0 F10500 X67.829 Y81.016
G1 F1380 X75.743 Y73.102 E58.15684
G0 F10500 X75.743 Y72.395
G1 F1380 X67.829 Y80.308 E58.49016
G0 F10500 X67.829 Y79.601
G1 F1380 X75.743 Y71.688 E58.82348
G0 F10500 X75.743 Y70.981
G1 F1380 X67.829 Y78.894 E59.15679
G0 F10500 X67.829 Y78.187
G1 F1380 X75.743 Y70.274 E59.49011
G0 F10500 X75.709 Y69.600
G1 F1380 X67.829 Y77.480 E59.82202
G0 F10500 X67.829 Y76.773
G1 F1380 X75.002 Y69.600 E60.12414
G0 F10500 X74.295 Y69.600
G1 F1380 X67.829 Y76.066 E60.39649
G0 F10500 X67.829 Y75.359
G1 F1380 X73.588 Y69.600 E60.63906
G0 F10500 X73.085 Y69.396
G1 F1380 X67.829 Y74.652 E60.86045
G0 F10500 X67.829 Y73.944
G1 F1380 X72.174 Y69.600 E61.04344
G0 F10500 X72.507 Y69.267
G1 F1380 X72.590 Y69.184 E61.04693
G0 F10500 X71.467 Y69.600
G1 F1380 X67.829 Y73.237 E61.20014
G0 F10500 X67.829 Y72.530
G1 F1380 X70.760 Y69.600 E61.32358
G0 F10500 X70.053 Y69.600
G1 F1380 X67.829 Y71.823 E61.41723
G0 F10500 X67.829 Y71.116
G1 F1380 X69.345 Y69.600 E61.48108
G0 F10500 X68.638 Y69.600
G1 F1380 X67.829 Y70.409 E61.51516
G0 F10500 X67.829 Y69.702
G1 F1380 X67.931 Y69.600 E61.51946
G1 F600 E60.01946
G1 Z0.905
G0 F10500 X79.160 Y69.426
;TYPE:WALL-INNER
G1 Z0.805
G1 F600 E61.51946
G1 F1140 X80.126 Y69.426 E61.54823
G1 X80.126 Y66.159 E61.64553
G1 X79.065 Y66.159 E61.67713
G1 X79.065 Y64.488 E61.72690
G1 X87.281 Y64.488 E61.97160
G1 X87.281 Y66.159 E62.02137
G1 X81.358 Y66.159 E62.19777
G1 X81.358 Y69.426 E62.29507
G1 X90.441 Y69.426 E62.56560
G1 X90.441 Y71.673 E62.63252
G1 X94.471 Y71.673 E62.75255
G1 X94.471 Y69.356 E62.82156
G1 X96.061 Y69.356 E62.86891
G1 X96.061 Y75.656 E63.05655
G1 X94.471 Y75.656 E63.10390
G1 X94.471 Y73.345 E63.17273
G1 X90.441 Y73.345 E63.29276
G1 X90.441 Y82.639 E63.56956
G1 X94.471 Y82.639 E63.68959
G1 X94.471 Y80.551 E63.75178
G1 X96.061 Y80.551 E63.79914
G1 X96.061 Y86.413 E63.97373
G1 X94.471 Y86.413 E64.02108
G1 X94.471 Y84.310 E64.08372
G1 X90.441 Y84.310 E64.20374
G1 X90.441 Y86.607 E64.27215
G1 X81.358 Y86.607 E64.54268
G1 X81.358 Y89.841 E64.63900
G1 X87.281 Y89.841 E64.81540
G1 X87.281 Y91.512 E64.86517
G1 X79.065 Y91.512 E65.10987
G1 X79.065 Y89.841 E65.15964
G1 X80.126 Y89.841 E65.19124
G1 X80.126 Y86.607 E65.28756
G1 X79.160 Y86.607 E65.31633
G1 X79.160 Y69.426 E65.82804
G0 F10500 X79.626 Y68.926
;TYPE:WALL-OUTER
G1 F1080 X79.626 Y66.659 E65.89556
G1 X78.565 Y66.659 E65.92716
G1 X78.565 Y63.988 E66.00671
G1 X87.781 Y63.988 E66.28119
G1 X87.781 Y66.659 E66.36074
G1 X81.858 Y66.659 E66.53715
G1 X81.858 Y68.926 E66.60467
G1 X90.941 Y68.926 E66.87519
G1 X90.941 Y71.173 E66.94212
G1 X93.971 Y71.173 E67.03236
G1 X93.971 Y68.856 E67.10137
G1 X96.561 Y68.856 E67.17851
G1 X96.561 Y76.156 E67.39593
G1 X93.971 Y76.156 E67.47306
G1 X93.971 Y73.845 E67.54189
G1 X90.941 Y73.845 E67.63214
G1 X90.941 Y82.139 E67.87916
G1 X93.971 Y82.139 E67.96940
G1 X93.971 Y80.051 E68.03159
G1 X96.561 Y80.051 E68.10873
G1 X96.561 Y86.913 E68.31310
G1 X93.971 Y86.913 E68.39024
G1 X93.971 Y84.810 E68.45288
G1 X90.941 Y84.810 E68.54312
G1 X90.941 Y87.107 E68.61153
G1 X81.858 Y87.107 E68.88206
G1 X81.858 Y89.341 E68.94859
G1 X87.781 Y89.341 E69.12500
G1 X87.781 Y92.012 E69.20455
G1 X78.565 Y92.012 E69.47903
G1 X78.565 Y89.341 E69.55859
G1 X79.626 Y89.341 E69.59019
G1 X79.626 Y87.107 E69.65672
G1 X78.660 Y87.107 E69.68549
G1 X78.660 Y68.926 E70.22698
G1 X79.626 Y68.926 E70.25576
G0 F10500 X79.952 Y69.600
;TYPE:SKIN
G1 F1380 X79.334 Y70.218 E70.28179
G0 F10500 X79.334 Y70.925
G1 F1380 X81.182 Y69.077 E70.35962
G0 F10500 X81.366 Y69.601
G1 F1380 X79.334 Y71.632 E70.44519
G0 F10500 X79.334 Y72.339
G1 F1380 X82.073 Y69.601 E70.56054
G0 F10500 X82.780 Y69.601
G1 F1380 X79.334 Y73.046 E70.70566
G0 F10500 X79.334 Y73.754
G1 F1380 X83.487 Y69.601 E70.88059
G0 F10500 X84.194 Y69.601
G1 F1380 X79.334 Y74.461 E71.08529
G0 F10500 X79.334 Y75.168
G1 F1380 X84.901 Y69.601 E71.31977
G0 F10500 X85.608 Y69.601
G1 F1380 X79.334 Y75.875 E71.58403
G0 F10500 X79.334 Y76.582
G1 F1380 X86.315 Y69.601 E71.87807
G0 F10500 X87.022 Y69.601
G1 F1380 X79.334 Y77.289 E72.20189
G0 F10500 X79.334 Y77.996
G1 F1380 X87.730 Y69.601 E72.55551
G0 F10500 X88.437 Y69.601
G1 F1380 X79.334 Y78.703 E72.93891
G0 F10500 X79.334 Y79.410
G1 F1380 X89.144 Y69.601 E73.35209
G0 F10500 X89.851 Y69.601
G1 F1380 X79.334 Y80.118 E73.79506
G0 F10500 X79.334 Y80.825
G1 F1380 X90.265 Y69.894 E74.25548
G0 F10500 X90.265 Y70.601
G1 F1380 X79.334 Y81.532 E74.71589
G0 F10500 X79.334 Y82.239
G1 F1380 X90.265 Y71.308 E75.17631
G0 F10500 X90.433 Y71.847
G1 F1380 X79.334 Y82.946 E75.64380
G0 F10500 X79.334 Y83.653
G1 F1380 X91.140 Y71.847 E76.14107
G0 F10500 X91.847 Y71.847
G1 F1380 X90.525 Y73.169 E76.19675
G0 F10500 X90.265 Y73.430
G1 F1380 X79.334 Y84.360 E76.65714
G0 F10500 X79.334 Y85.067
G1 F1380 X90.265 Y74.137 E77.11753
G0 F10500 X90.265 Y74.844
G1 F1380 X79.334 Y85.774 E77.57793
G0 F10500 X79.384 Y86.431
G1 F1380 X90.265 Y75.551 E78.03622
G0 F10500 X90.265 Y76.258
G1 F1380 X80.091 Y86.431 E78.46472
G0 F10500 X80.301 Y86.929
G1 F1380 X90.265 Y76.965 E78.88441
G0 F10500 X90.265 Y77.672
G1 F1380 X81.506 Y86.431 E79.25334
G0 F10500 X81.182 Y86.754
G1 F1380 X80.301 Y87.636 E79.29047
G0 F10500 X80.301 Y88.343
G1 F1380 X81.182 Y87.462 E79.32757
G0 F10500 X81.182 Y88.169
G1 F1380 X80.301 Y89.050 E79.36468
G0 F10500 X80.301 Y89.758
G1 F1380 X81.182 Y88.876 E79.40181
G0 F10500 X81.182 Y89.583
G1 F1380 X79.430 Y91.336 E79.47563
G0 F10500 X79.240 Y90.818
G1 F1380 X80.043 Y90.015 E79.50945
G0 F10500 X80.137 Y91.336
G1 F1380 X81.458 Y90.014 E79.56511
G0 F10500 X82.165 Y90.014
G1 F1380 X80.844 Y91.336 E79.62077
G0 F10500 X81.551 Y91.336
G1 F1380 X82.872 Y90.014 E79.67643
G0 F10500 X83.580 Y90.014
G1 F1380 X82.258 Y91.336 E79.73212
G0 F10500 X82.965 Y91.336
G1 F1380 X84.287 Y90.014 E79.78780
G0 F10500 X84.994 Y90.014
G1 F1380 X83.672 Y91.336 E79.84348
G0 F10500 X84.379 Y91.336
G1 F1380 X85.701 Y90.014 E79.89916
G0 F10500 X86.408 Y90.014
G1 F1380 X85.086 Y91.336 E79.95485
G0 F10500 X85.793 Y91.336
G1 F1380 X87.106 Y90.023 E80.01015
G0 F10500 X87.106 Y90.730
G1 F1380 X86.501 Y91.336 E80.03565
G0 F10500 X81.467 Y89.732
G0 X81.467 Y86.716
G0 X86.455 Y86.431
G1 F1380 X90.265 Y82.622 E80.19611
G0 F10500 X90.780 Y82.814
G1 F1380 X87.162 Y86.431 E80.34848
G0 F10500 X87.870 Y86.431
G1 F1380 X91.487 Y82.814 E80.50083
G0 F10500 X92.194 Y82.814
G1 F1380 X90.873 Y84.135 E80.55647
G0 F10500 X91.580 Y84.135
G1 F1380 X92.901 Y82.814 E80.61211
G0 F10500 X93.608 Y82.814
G1 F1380 X92.288 Y84.135 E80.66773
G0 F10500 X92.995 Y84.135
G1 F1380 X94.316 Y82.814 E80.72337
G0 F10500 X94.645 Y82.484
G1 F1380 X95.885 Y81.245 E80.77558
G0 F10500 X95.697 Y80.726
G1 F1380 X94.645 Y81.777 E80.81987
G0 F10500 X94.645 Y81.070
G1 F1380 X94.989 Y80.726 E80.83436
G0 F10500 X95.885 Y81.952
G1 F1380 X93.702 Y84.135 E80.92630
G0 F10500 X94.409 Y84.135
G1 F1380 X95.885 Y82.659 E80.98847
G0 F10500 X95.885 Y83.366
G1 F1380 X94.645 Y84.606 E81.04070
G0 F10500 X94.645 Y85.313
G1 F1380 X95.885 Y84.073 E81.09293
G0 F10500 X95.885 Y84.780
G1 F1380 X94.645 Y86.020 E81.14516
G0 F10500 X95.134 Y86.238
G1 F1380 X95.885 Y85.487 E81.17679
G0 F10500 X94.362 Y84.419
G0 X90.550 Y84.419
G0 X90.265 Y85.450
G1 F1380 X89.284 Y86.431 E81.21811
G0 F10500 X89.991 Y86.431
G1 F1380 X90.265 Y86.157 E81.22965
G0 F10500 X90.265 Y84.743
G1 F1380 X88.577 Y86.431 E81.30075
G0 F10500 X85.748 Y86.431
G1 F1380 X90.265 Y81.915 E81.49099
G0 F10500 X90.265 Y81.208
G1 F1380 X85.041 Y86.431 E81.71100
G0 F10500 X84.334 Y86.431
G1 F1380 X90.265 Y80.501 E81.96079
G0 F10500 X90.265 Y79.794
G1 F1380 X83.627 Y86.431 E82.24037
G0 F10500 X82.920 Y86.431
G1 F1380 X90.265 Y79.087 E82.54972
G0 F10500 X90.265 Y78.379
G1 F1380 X82.213 Y86.431 E82.88887
G0 F10500 X81.467 Y86.716
G0 X81.467 Y89.732
G0 X79.336 Y90.015
G1 F1380 X79.240 Y90.111 E82.89291
G0 F10500 X81.467 Y89.732
G0 X81.467 Y86.716
G0 X90.550 Y84.419
G0 X94.362 Y84.419
G0 X90.550 Y82.530
G0 X90.550 Y73.454
G0 X91.232 Y73.169
G1 F1380 X92.554 Y71.847 E82.94859
G0 F10500 X93.261 Y71.847
G1 F1380 X91.939 Y73.169 E83.00428
G0 F10500 X92.646 Y73.169
G1 F1380 X93.968 Y71.847 E83.05996
G0 F10500 X94.645 Y71.171
G1 F1380 X95.885 Y69.931 E83.11219
G0 F10500 X95.578 Y69.531
G1 F1380 X94.645 Y70.463 E83.15147
G0 F10500 X94.645 Y69.756
G1 F1380 X94.871 Y69.531 E83.16096
G0 F10500 X95.885 Y70.638
G1 F1380 X93.353 Y73.169 E83.26759
G0 F10500 X94.060 Y73.169
G1 F1380 X95.885 Y71.345 E83.34444
G0 F10500 X95.885 Y72.052
G1 F1380 X94.644 Y73.293 E83.39671
G0 F10500 X94.644 Y74.000
G1 F1380 X95.885 Y72.759 E83.44898
G0 F10500 X95.885 Y73.466
G1 F1380 X94.644 Y74.707 E83.50125
G0 F10500 X94.644 Y75.414
G1 F1380 X95.885 Y74.174 E83.55350
G0 F10500 X95.885 Y74.881
G1 F1380 X95.285 Y75.480 E83.57875
G0 F10500 X94.362 Y71.564
G0 X90.550 Y71.564
G0 X81.467 Y69.317
G0 X81.467 Y66.268
G0 X86.397 Y65.983
G1 F1380 X87.104 Y65.276 E83.60853
G0 F10500 X87.011 Y64.662
G1 F1380 X85.690 Y65.983 E83.66417
G0 F10500 X84.983 Y65.983
G1 F1380 X86.304 Y64.662 E83.71981
G0 F10500 X85.597 Y64.662
G1 F1380 X84.276 Y65.983 E83.77545
G0 F10500 X83.569 Y65.983
G1 F1380 X84.890 Y64.662 E83.83109
G0 F10500 X84.183 Y64.662
G1 F1380 X82.862 Y65.983 E83.88673
G0 F10500 X82.155 Y65.983
G1 F1380 X83.476 Y64.662 E83.94237
G0 F10500 X82.768 Y64.662
G1 F1380 X81.448 Y65.983 E83.99799
G0 F10500 X81.182 Y66.249
G1 F1380 X80.300 Y67.131 E84.03514
G0 F10500 X80.300 Y67.838
G1 F1380 X81.182 Y66.956 E84.07229
G0 F10500 X81.182 Y67.663
G1 F1380 X80.300 Y68.545 E84.10944
G0 F10500 X80.300 Y69.252
G1 F1380 X81.182 Y68.370 E84.14659
G0 F10500 X80.300 Y66.424
G1 F1380 X82.061 Y64.662 E84.22079
G0 F10500 X81.354 Y64.662
G1 F1380 X80.033 Y65.984 E84.27645
G0 F10500 X79.326 Y65.984
G1 F1380 X80.647 Y64.662 E84.33211
G0 F10500 X79.940 Y64.662
G1 F1380 X79.239 Y65.364 E84.36166
;LAYER:2
G1 F600 E82.86166
G1 Z0.905
G0 F10500 X75.919 Y69.426 Z1.185
;TYPE:WALL-INNER
G1 Z1.185
G1 F600 E84.36166
G1 F1440 X75.919 Y86.607 E84.87337
G1 X67.655 Y86.607 E85.11950
G1 X67.655 Y69.426 E85.63121
G1 X72.333 Y69.426 E85.77053
G1 X72.333 Y68.600 E85.79513
G1 X73.261 Y68.599 E85.82277
G1 X73.261 Y69.426 E85.84740
G1 X75.919 Y69.426 E85.92657
G0 F10500 X73.370 Y69.317
G0 X73.411 Y68.926
G0 X73.761 Y68.926
;TYPE:WALL-OUTER
G1 F1320 X76.419 Y68.926 E86.00573
G1 X76.419 Y87.107 E86.54722
G1 X67.155 Y87.107 E86.82314
G1 X67.155 Y68.926 E87.36463
G1 X71.833 Y68.926 E87.50395
G1 X71.833 Y68.100 E87.52856
G1 X73.761 Y68.099 E87.58598
G1 X73.761 Y68.926 E87.61061
G0 F10500 X73.490 Y69.601
;TYPE:SKIN
G1 F1920 X75.743 Y71.854 E87.70551
G0 F10500 X75.743 Y72.561
G1 F1920 X72.507 Y69.325 E87.84181
G0 F10500 X72.076 Y69.601
G1 F1920 X75.743 Y73.268 E87.99626
G0 F10500 X75.743 Y73.976
G1 F1920 X71.368 Y69.601 E88.18054
G0 F10500 X70.661 Y69.601
G1 F1920 X75.743 Y74.683 E88.39459
G0 F10500 X75.743 Y75.390
G1 F1920 X69.954 Y69.601 E88.63842
G0 F10500 X69.247 Y69.601
G1 F1920 X75.743 Y76.097 E88.91203
G0 F10500 X75.743 Y76.804
G1 F1920 X68.540 Y69.601 E89.21543
G0 F10500 X67.833 Y69.601
G1 F1920 X75.743 Y77.511 E89.54859
G0 F10500 X75.743 Y78.218
G1 F1920 X67.829 Y70.304 E89.88193
G0 F10500 X67.829 Y71.011
G1 F1920 X75.743 Y78.925 E90.21527
G0 F10500 X75.743 Y79.632
G1 F1920 X67.829 Y71.719 E90.54859
G0 F10500 X67.829 Y72.426
G1 F1920 X75.743 Y80.340 E90.88193
G0 F10500 X75.743 Y81.047
G1 F1920 X67.829 Y73.133 E91.21526
G0 F10500 X67.829 Y73.840
G1 F1920 X75.743 Y81.754 E91.54860
G0 F10500 X75.743 Y82.461
G1 F1920 X67.829 Y74.547 E91.88194
G0 F10500 X67.829 Y75.254
G1 F1920 X75.743 Y83.168 E92.21528
G0 F10500 X75.743 Y83.875
G1 F1920 X67.829 Y75.961 E92.54862
G0 F10500 X67.829 Y76.668
G1 F1920 X75.743 Y84.582 E92.88196
G0 F10500 X75.743 Y85.289
G1 F1920 X67.829 Y77.375 E93.21529
G0 F10500 X67.829 Y78.082
G1 F1920 X75.743 Y85.996 E93.54863
G0 F10500 X75.470 Y86.431
G1 F1920 X67.829 Y78.790 E93.87047
G0 F10500 X67.829 Y79.497
G1 F1920 X74.763 Y86.431 E94.16253
G0 F10500 X74.056 Y86.431
G1 F1920 X67.829 Y80.204 E94.42481
G0 F10500 X67.829 Y80.911
G1 F1920 X73.349 Y86.431 E94.65732
G0 F10500 X72.642 Y86.431
G1 F1920 X67.829 Y81.618 E94.86004
G0 F10500 X67.829 Y82.325
G1 F1920 X71.935 Y86.431 E95.03298
G0 F10500 X71.228 Y86.431
G1 F1920 X67.829 Y83.032 E95.17615
G0 F10500 X67.829 Y83.739
G1 F1920 X70.521 Y86.431 E95.28954
G0 F10500 X69.814 Y86.431
G1 F1920 X67.829 Y84.446 E95.37315
G0 F10500 X67.829 Y85.154
G1 F1920 X69.106 Y86.431 E95.42693
G0 F10500 X68.399 Y86.431
G1 F1920 X67.829 Y85.861 E95.45094
G0 F10500 X75.743 Y71.147
G1 F1920 X74.197 Y69.601 E95.51606
G0 F10500 X74.904 Y69.601
G1 F1920 X75.743 Y70.440 E95.55140
G0 F10500 X75.743 Y69.733
G1 F1920 X75.611 Y69.601 E95.55696
G0 F10500 X73.085 Y69.196
G1 F1920 X72.664 Y68.775 E95.57469
G1 F600 E94.07469
G1 Z1.285
G0 F10500 X79.160 Y69.426
;TYPE:WALL-INNER
G1 Z1.185
G1 F600 E95.57469
G1 F1440 X80.126 Y69.426 E95.60346
G1 X80.126 Y66.159 E95.70076
G1 X79.065 Y66.159 E95.73236
G1 X79.065 Y64.488 E95.78213
G1 X87.281 Y64.488 E96.02683
G1 X87.281 Y66.159 E96.07660
G1 X81.358 Y66.159 E96.25301
G1 X81.358 Y69.426 E96.35031
G1 X90.441 Y69.426 E96.62083
G1 X90.441 Y71.673 E96.68776
G1 X94.471 Y71.673 E96.80778
G1 X94.471 Y69.356 E96.87679
G1 X96.061 Y69.356 E96.92415
G1 X96.061 Y75.656 E97.11178
G1 X94.471 Y75.656 E97.15914
G1 X94.471 Y73.345 E97.22797
G1 X90.441 Y73.345 E97.34799
G1 X90.441 Y82.639 E97.62480
G1 X94.471 Y82.639 E97.74483
G1 X94.471 Y80.551 E97.80701
G1 X96.061 Y80.551 E97.85437
G1 X96.061 Y86.413 E98.02896
G1 X94.471 Y86.413 E98.07632
G1 X94.471 Y84.310 E98.13895
G1 X90.441 Y84.310 E98.25898
G1 X90.441 Y86.607 E98.32739
G1 X81.358 Y86.607 E98.59791
G1 X81.358 Y89.841 E98.69423
G1 X87.281 Y89.841 E98.87064
G1 X87.281 Y91.512 E98.92041
G1 X79.065 Y91.512 E99.16511
G1 X79.065 Y89.841 E99.21488
G1 X80.126 Y89.841 E99.24648
G1 X80.126 Y86.607 E99.34279
G1 X79.160 Y86.607 E99.37157
G1 X79.160 Y69.426 E99.88327
G0 F10500 X79.626 Y68.926
;TYPE:WALL-OUTER
G1 F1320 X79.626 Y66.659 E99.95079
G1 X78.565 Y66.659 E99.98239
G1 X78.565 Y63.988 E100.06194
G1 X87.781 Y63.988 E100.33643
G1 X87.781 Y66.659 E100.41598
G1 X81.858 Y66.659 E100.59239
G1 X81.858 Y68.926 E100.65991
G1 X90.941 Y68.926 E100.93043
G1 X90.941 Y71.173 E100.99735
G1 X93.971 Y71.173 E101.08759
G1 X93.971 Y68.856 E101.15660
G1 X96.561 Y68.856 E101.23374
G1 X96.561 Y76.156 E101.45116
G1 X93.971 Y76.156 E101.52830
G1 X93.971 Y73.845 E101.59713
G1 X90.941 Y73.845 E101.68737
G1 X90.941 Y82.139 E101.93440
G1 X93.971 Y82.139 E102.02464
G1 X93.971 Y80.051 E102.08683
G1 X96.561 Y80.051 E102.16397
G1 X96.561 Y86.913 E102.36834
G1 X93.971 Y86.913 E102.44548
G1 X93.971 Y84.810 E102.50811
G1 X90.941 Y84.810 E102.59836
G1 X90.941 Y87.107 E102.66677
G1 X81.858 Y87.107 E102.93729
G1 X81.858 Y89.341 E103.00383
G1 X87.781 Y89.341 E103.18023
G1 X87.781 Y92.012 E103.25979
G1 X78.565 Y92.012 E103.53427
G1 X78.565 Y89.341 E103.61382
G1 X79.626 Y89.341 E103.64542
G1 X79.626 Y87.107 E103.71196
G1 X78.660 Y87.107 E103.74073
G1 X78.660 Y68.926 E104.28222
G1 X79.626 Y68.926 E104.31099
G0 F10500 X79.854 Y69.601
;TYPE:SKIN
G1 F1920 X90.265 Y80.012 E104.74950
G0 F10500 X90.265 Y80.719
G1 F1920 X79.333 Y69.787 E105.20996
G0 F10500 X79.333 Y70.495
G1 F1920 X90.265 Y81.426 E105.67039
G0 F10500 X90.265 Y82.133
G1 F1920 X79.333 Y71.202 E106.13083
G0 F10500 X79.333 Y71.909
G1 F1920 X91.559 Y84.135 E106.64579
G0 F10500 X90.852 Y84.135
G1 F1920 X79.333 Y72.616 E107.13097
G0 F10500 X79.333 Y73.323
G1 F1920 X90.265 Y84.255 E107.59143
G0 F10500 X90.265 Y84.962
G1 F1920 X79.333 Y74.030 E108.05188
G0 F10500 X79.333 Y74.737
G1 F1920 X90.265 Y85.669 E108.51234
G0 F10500 X90.265 Y86.376
G1 F1920 X79.333 Y75.444 E108.97280
G0 F10500 X79.333 Y76.151
G1 F1920 X89.613 Y86.431 E109.40579
G0 F10500 X88.905 Y86.431
G1 F1920 X79.333 Y76.858 E109.80899
G0 F10500 X79.333 Y77.566
G1 F1920 X88.198 Y86.431 E110.18238
G0 F10500 X87.491 Y86.431
G1 F1920 X79.333 Y78.273 E110.52600
G0 F10500 X79.333 Y78.980
G1 F1920 X86.784 Y86.431 E110.83983
G0 F10500 X86.077 Y86.431
G1 F1920 X79.333 Y79.687 E111.12389
G0 F10500 X81.182 Y66.686
G1 F1920 X79.239 Y64.743 E111.20573
G0 F10500 X79.865 Y64.662
G1 F1920 X81.186 Y65.983 E111.26137
G0 F10500 X81.893 Y65.983
G1 F1920 X80.572 Y64.662 E111.31701
G0 F10500 X81.279 Y64.662
G1 F1920 X82.600 Y65.983 E111.37265
G0 F10500 X83.307 Y65.983
G1 F1920 X81.986 Y64.662 E111.42829
G0 F10500 X82.694 Y64.662
G1 F1920 X84.014 Y65.983 E111.48391
G0 F10500 X84.721 Y65.983
G1 F1920 X83.401 Y64.662 E111.53953
G0 F10500 X84.108 Y64.662
G1 F1920 X85.429 Y65.983 E111.59517
G0 F10500 X86.136 Y65.983
G1 F1920 X84.815 Y64.662 E111.65081
G0 F10500 X85.522 Y64.662
G1 F1920 X86.843 Y65.983 E111.70645
G0 F10500 X87.104 Y65.538
G1 F1920 X86.229 Y64.662 E111.74333
G0 F10500 X86.936 Y64.662
G1 F1920 X87.104 Y64.831 E111.75043
G0 F10500 X81.467 Y66.268
G0 X81.467 Y69.317
G0 X86.925 Y69.601
G1 F1920 X90.494 Y73.169 E111.90073
G0 F10500 X90.265 Y73.648
G1 F1920 X86.218 Y69.601 E112.07119
G0 F10500 X85.511 Y69.601
G1 F1920 X90.265 Y74.355 E112.27143
G0 F10500 X90.265 Y75.062
G1 F1920 X84.804 Y69.601 E112.50145
G0 F10500 X84.096 Y69.601
G1 F1920 X90.265 Y75.770 E112.76129
G0 F10500 X90.265 Y76.477
G1 F1920 X83.389 Y69.601 E113.05090
G0 F10500 X82.682 Y69.601
G1 F1920 X90.265 Y77.184 E113.37030
G0 F10500 X90.265 Y77.891
G1 F1920 X81.975 Y69.601 E113.71948
G0 F10500 X81.268 Y69.601
G1 F1920 X90.265 Y78.598 E114.09843
G0 F10500 X90.265 Y79.305
G1 F1920 X80.300 Y69.340 E114.51816
G0 F10500 X80.300 Y68.633
G1 F1920 X81.182 Y69.514 E114.55528
G0 F10500 X81.182 Y68.807
G1 F1920 X80.300 Y67.926 E114.59241
G0 F10500 X80.300 Y67.218
G1 F1920 X81.182 Y68.100 E114.62956
G0 F10500 X81.182 Y67.393
G1 F1920 X80.300 Y66.511 E114.66671
G0 F10500 X81.467 Y69.317
G0 X87.632 Y69.601
G1 F1920 X91.201 Y73.169 E114.81702
G0 F10500 X91.908 Y73.169
G1 F1920 X90.586 Y71.848 E114.87268
G0 F10500 X90.265 Y71.527
G1 F1920 X88.339 Y69.601 E114.95380
G0 F10500 X89.046 Y69.601
G1 F1920 X90.265 Y70.820 E115.00515
G0 F10500 X90.265 Y70.113
G1 F1920 X89.753 Y69.601 E115.02671
G0 F10500 X90.550 Y71.564
G0 X91.293 Y71.848
G1 F1920 X92.615 Y73.169 E115.08238
G0 F10500 X93.322 Y73.169
G1 F1920 X92.000 Y71.848 E115.13804
G0 F10500 X92.708 Y71.848
G1 F1920 X94.029 Y73.169 E115.19368
G0 F10500 X94.644 Y73.785
G1 F1920 X95.885 Y75.025 E115.24593
G0 F10500 X95.633 Y75.480
G1 F1920 X94.644 Y74.492 E115.28756
G0 F10500 X94.644 Y75.199
G1 F1920 X94.926 Y75.480 E115.29942
G0 F10500 X95.885 Y74.318
G1 F1920 X93.415 Y71.848 E115.40346
G0 F10500 X94.122 Y71.848
G1 F1920 X95.885 Y73.611 E115.47771
G0 F10500 X95.885 Y72.904
G1 F1920 X94.644 Y71.663 E115.52998
G0 F10500 X94.644 Y70.956
G1 F1920 X95.885 Y72.197 E115.58226
G0 F10500 X95.885 Y71.489
G1 F1920 X94.644 Y70.249 E115.63451
G0 F10500 X94.644 Y69.542
G1 F1920 X95.885 Y70.782 E115.68676
G0 F10500 X95.885 Y70.075
G1 F1920 X95.340 Y69.531 E115.70969
G0 F10500 X94.362 Y73.454
G0 X90.550 Y73.454
G0 X90.550 Y82.530
G0 X94.362 Y82.530
G0 X95.221 Y80.726
G1 F1920 X95.885 Y81.390 E115.73766
G0 F10500 X95.885 Y82.097
G1 F1920 X94.644 Y80.856 E115.78993
G0 F10500 X94.644 Y81.563
G1 F1920 X95.885 Y82.804 E115.84220
G0 F10500 X95.885 Y83.511
G1 F1920 X94.644 Y82.270 E115.89447
G0 F10500 X94.481 Y82.814
G1 F1920 X95.885 Y84.218 E115.95361
G0 F10500 X95.885 Y84.925
G1 F1920 X93.774 Y82.814 E116.04252
G0 F10500 X93.067 Y82.814
G1 F1920 X94.388 Y84.135 E116.09816
G0 F10500 X94.645 Y84.392
G1 F1920 X95.885 Y85.632 E116.15039
G0 F10500 X95.783 Y86.238
G1 F1920 X94.645 Y85.099 E116.19835
G0 F10500 X94.645 Y85.806
G1 F1920 X95.076 Y86.238 E116.21652
G0 F10500 X94.362 Y84.419
G0 X93.681 Y84.135
G1 F1920 X92.360 Y82.814 E116.27216
G0 F10500 X91.653 Y82.814
G1 F1920 X92.973 Y84.135 E116.32778
G0 F10500 X92.266 Y84.135
G1 F1920 X90.945 Y82.814 E116.38342
G0 F10500 X85.370 Y86.431
G1 F1920 X79.333 Y80.394 E116.63770
G0 F10500 X79.333 Y81.101
G1 F1920 X84.663 Y86.431 E116.86220
G0 F10500 X83.956 Y86.431
G1 F1920 X79.333 Y81.808 E117.05692
G0 F10500 X79.333 Y82.515
G1 F1920 X83.249 Y86.431 E117.22186
G0 F10500 X82.541 Y86.431
G1 F1920 X79.333 Y83.222 E117.35701
G0 F10500 X79.333 Y83.930
G1 F1920 X81.834 Y86.431 E117.46235
G0 F10500 X81.182 Y86.486
G1 F1920 X79.333 Y84.637 E117.54023
G0 F10500 X79.333 Y85.344
G1 F1920 X81.182 Y87.193 E117.61811
G0 F10500 X81.182 Y87.900
G1 F1920 X80.301 Y87.018 E117.65524
G0 F10500 X80.301 Y87.725
G1 F1920 X81.182 Y88.607 E117.69237
G0 F10500 X81.182 Y89.314
G1 F1920 X80.301 Y88.432 E117.72949
G0 F10500 X80.301 Y89.140
G1 F1920 X82.497 Y91.336 E117.82199
G0 F10500 X81.790 Y91.336
G1 F1920 X80.301 Y89.847 E117.88471
G0 F10500 X79.762 Y90.015
G1 F1920 X81.083 Y91.336 E117.94035
G0 F10500 X80.376 Y91.336
G1 F1920 X79.240 Y90.200 E117.98820
G0 F10500 X79.240 Y90.907
G1 F1920 X79.669 Y91.336 E118.00627
G0 F10500 X80.017 Y89.732
G0 X80.017 Y86.716
G0 X79.713 Y86.431
G1 F1920 X79.333 Y86.051 E118.02227
G0 F10500 X80.017 Y86.716
G0 X80.017 Y89.732
G0 X81.883 Y90.015
G1 F1920 X83.204 Y91.336 E118.07791
G0 F10500 X83.911 Y91.336
G1 F1920 X82.590 Y90.015 E118.13355
G0 F10500 X83.297 Y90.015
G1 F1920 X84.618 Y91.336 E118.18919
G0 F10500 X85.325 Y91.336
G1 F1920 X84.004 Y90.015 E118.24483
G0 F10500 X84.712 Y90.015
G1 F1920 X86.032 Y91.336 E118.30045
G0 F10500 X86.740 Y91.336
G1 F1920 X85.419 Y90.015 E118.35609
G0 F10500 X86.126 Y90.015
G1 F1920 X87.106 Y90.995 E118.39737
G0 F10500 X87.106 Y90.288
G1 F1920 X86.833 Y90.015 E118.40887
G0 F10500 X81.467 Y89.732
G0 X81.467 Y86.716
G0 X85.848 Y86.665
G0 X79.772 Y65.983
G1 F1920 X79.239 Y65.450 E118.43132
;LAYER:3
G1 F600 E116.93132
G1 Z1.285
G0 F10500 X75.919 Y69.426 Z1.565
;TYPE:WALL-INNER
G1 Z1.565
G1 F600 E118.43132
G1 F1740 X75.919 Y86.607 E118.94303
G1 X67.655 Y86.607 E119.18916
G1 X67.655 Y69.426 E119.70087
G1 X72.333 Y69.426 E119.84019
G1 X72.333 Y68.189 E119.87704
G1 X73.261 Y68.189 E119.90467
G1 X73.261 Y69.426 E119.94152
G1 X75.919 Y69.426 E120.02068
G0 F10500 X73.370 Y69.317
G0 X73.411 Y68.926
G0 X73.761 Y68.926
;TYPE:WALL-OUTER
G1 F1500 X76.419 Y68.926 E120.09984
G1 X76.419 Y87.107 E120.64134
G1 X67.155 Y87.107 E120.91725
G1 X67.155 Y68.926 E121.45874
G1 X71.833 Y68.926 E121.59807
G1 X71.833 Y67.689 E121.63491
G1 X73.761 Y67.688 E121.69233
G1 X73.761 Y68.926 E121.72920
G0 F10500 X73.085 Y69.549
;TYPE:FILL
G1 F1980 X72.507 Y68.971 E121.75355
G0 F10500 X73.136 Y69.601
G1 F1980 X75.743 Y72.208 E121.86336
G0 F10500 X75.356 Y69.600
G1 F1980 X67.829 Y77.126 E122.18037
G0 F10500 X67.829 Y78.436
G1 F1980 X75.743 Y86.350 E122.51371
G0 F10500 X75.743 Y83.355
G1 F1980 X72.667 Y86.431 E122.64327
G0 F10500 X68.753 Y86.431
G1 F1980 X67.829 Y85.507 E122.68219
G0 F10500 X67.829 Y84.198
G1 F1980 X75.743 Y76.284 E123.01553
G0 F10500 X75.743 Y79.279
G1 F1980 X67.829 Y71.365 E123.34887
G0 F10500 X67.829 Y70.055
G1 F1980 X68.285 Y69.600 E123.36805
G0 F10500 X72.507 Y69.267
;TYPE:SKIN
G1 F2400 X72.894 Y68.526 E123.39240
G1 X72.507 Y68.560 E123.40397
G0 F10500 X73.085 Y69.396
G1 F2400 X72.793 Y69.688 E123.41627
G1 F600 E121.91627
G1 Z1.665
G0 F10500 X79.160 Y69.426
;TYPE:WALL-INNER
G1 Z1.565
G1 F600 E123.41627
G1 F1740 X80.126 Y69.426 E123.44504
G1 X80.126 Y66.159 E123.54235
G1 X79.065 Y66.159 E123.57395
G1 X79.065 Y64.488 E123.62371
G1 X87.281 Y64.488 E123.86842
G1 X87.281 Y66.159 E123.91818
G1 X81.358 Y66.159 E124.09459
G1 X81.358 Y69.426 E124.19189
G1 X90.441 Y69.426 E124.46241
G1 X90.441 Y71.673 E124.52934
G1 X94.471 Y71.673 E124.64937
G1 X94.471 Y69.356 E124.71837
G1 X96.061 Y69.356 E124.76573
G1 X96.061 Y75.656 E124.95336
G1 X94.471 Y75.656 E125.00072
G1 X94.471 Y73.345 E125.06955
G1 X90.441 Y73.345 E125.18958
G1 X90.441 Y82.639 E125.46638
G1 X94.471 Y82.639 E125.58641
G1 X94.471 Y80.551 E125.64860
G1 X96.061 Y80.551 E125.69595
G1 X96.061 Y86.413 E125.87054
G1 X94.471 Y86.413 E125.91790
G1 X94.471 Y84.310 E125.98053
G1 X90.441 Y84.310 E126.10056
G1 X90.441 Y86.607 E126.16897
G1 X81.358 Y86.607 E126.43950
G1 X81.358 Y89.841 E126.53581
G1 X87.281 Y89.841 E126.71222
G1 X87.281 Y91.512 E126.76199
G1 X79.065 Y91.512 E127.00669
G1 X79.065 Y89.841 E127.05646
G1 X80.126 Y89.841 E127.08806
G1 X80.126 Y86.607 E127.18438
G1 X79.160 Y86.607 E127.21315
G1 X79.160 Y69.426 E127.72486
G0 F10500 X79.626 Y68.926
;TYPE:WALL-OUTER
G1 F1500 X79.626 Y66.659 E127.79238
G1 X78.565 Y66.659 E127.82398
G1 X78.565 Y63.988 E127.90353
G1 X87.781 Y63.988 E128.17801
G1 X87.781 Y66.659 E128.25756
G1 X81.858 Y66.659 E128.43397
G1 X81.858 Y68.926 E128.50149
G1 X90.941 Y68.926 E128.77201
G1 X90.941 Y71.173 E128.83893
G1 X93.971 Y71.173 E128.92918
G1 X93.971 Y68.856 E128.99819
G1 X96.561 Y68.856 E129.07532
G1 X96.561 Y76.156 E129.29274
G1 X93.971 Y76.156 E129.36988
G1 X93.971 Y73.845 E129.43871
G1 X90.941 Y73.845 E129.52896
G1 X90.941 Y82.139 E129.77598
G1 X93.971 Y82.139 E129.86622
G1 X93.971 Y80.051 E129.92841
G1 X96.561 Y80.051 E130.00555
G1 X96.561 Y86.913 E130.20992
G1 X93.971 Y86.913 E130.28706
G1 X93.971 Y84.810 E130.34970
G1 X90.941 Y84.810 E130.43994
G1 X90.941 Y87.107 E130.50835
G1 X81.858 Y87.107 E130.77887
G1 X81.858 Y89.341 E130.84541
G1 X87.781 Y89.341 E131.02182
G1 X87.781 Y92.012 E131.10137
G1 X78.565 Y92.012 E131.37585
G1 X78.565 Y89.341 E131.45540
G1 X79.626 Y89.341 E131.48700
G1 X79.626 Y87.107 E131.55354
G1 X78.660 Y87.107 E131.58231
G1 X78.660 Y68.926 E132.12380
G1 X79.626 Y68.926 E132.15257
G0 F10500 X79.626 Y69.276
G0 X82.426 Y69.601
;TYPE:FILL
G1 F1980 X79.334 Y72.693 E132.28281
G0 F10500 X79.333 Y75.798
G1 F1980 X89.966 Y86.431 E132.73067
G0 F10500 X86.809 Y86.431
G1 F1980 X90.426 Y82.814 E132.88302
G0 F10500 X93.420 Y82.814
G1 F1980 X95.885 Y85.279 E132.98685
G0 F10500 X95.885 Y84.427
G1 F1980 X94.645 Y85.666 E133.03905
G0 F10500 X94.362 Y84.419
G0 X90.550 Y84.419
G0 X81.467 Y86.716
G0 X81.467 Y89.732
G0 X87.106 Y90.641
G1 F1980 X86.479 Y90.015 E133.06544
G0 F10500 X83.226 Y90.014
G1 F1980 X81.904 Y91.336 E133.12112
G0 F10500 X80.729 Y91.336
G1 F1980 X79.408 Y90.015 E133.17676
G0 F10500 X80.017 Y89.732
G0 X80.017 Y86.716
G0 X79.738 Y86.431
G1 F1980 X90.265 Y75.905 E133.62014
G0 F10500 X90.550 Y73.454
G0 X90.847 Y73.169
G1 F1980 X87.278 Y69.601 E133.77045
G0 F10500 X89.497 Y69.601
G1 F1980 X79.334 Y79.764 E134.19851
G0 F10500 X80.017 Y69.317
G0 X80.017 Y66.268
G0 X79.239 Y65.717
G1 F1980 X80.294 Y64.662 E134.24295
G0 F10500 X82.340 Y64.662
G1 F1980 X83.661 Y65.983 E134.29859
G0 F10500 X86.044 Y65.983
G1 F1980 X87.104 Y64.923 E134.34324
G0 F10500 X81.467 Y66.268
G0 X80.207 Y69.601
G1 F1980 X90.265 Y79.659 E134.76688
G0 F10500 X90.550 Y73.454
G0 X93.000 Y73.169
G1 F1980 X94.322 Y71.847 E134.82256
G0 F10500 X94.645 Y71.524
G1 F1980 X95.885 Y70.284 E134.87479
G0 F10500 X95.885 Y71.136
G1 F1980 X94.644 Y69.896 E134.92704
G0 F10500 X94.362 Y71.564
G0 X92.688 Y71.552
G0 X79.333 Y82.869
G1 F1980 X82.895 Y86.431 E135.07707
;LAYER:4
M106 S209
G0 F10500 X81.358 Y86.607 Z1.945
;TYPE:WALL-INNER
G1 F1800 X81.358 Y89.841 E135.17339
G1 X87.281 Y89.841 E135.34980
G1 X87.281 Y91.512 E135.39957
G1 X79.065 Y91.512 E135.64427
G1 X79.065 Y89.841 E135.69404
G1 X80.126 Y89.841 E135.72564
G1 X80.126 Y86.607 E135.82196
G1 X79.160 Y86.607 E135.85073
G1 X79.160 Y80.367 E136.03658
G1 X75.919 Y80.367 E136.13310
G1 X75.919 Y86.607 E136.31895
G1 X67.655 Y86.607 E136.56508
G1 X67.655 Y69.426 E137.07679
G1 X72.333 Y69.426 E137.21612
G1 X72.333 Y67.777 E137.26523
G1 X73.261 Y67.778 E137.29287
G1 X73.261 Y69.426 E137.34195
G1 X75.919 Y69.426 E137.42112
G1 X75.919 Y75.727 E137.60878
G1 X79.160 Y75.727 E137.70531
G1 X79.160 Y69.426 E137.89297
G1 X80.126 Y69.426 E137.92174
G1 X80.126 Y66.159 E138.01905
G1 X79.065 Y66.159 E138.05065
G1 X79.065 Y64.488 E138.10042
G1 X87.281 Y64.488 E138.34512
G1 X87.281 Y66.159 E138.39488
G1 X81.358 Y66.159 E138.57129
G1 X81.358 Y69.426 E138.66859
G1 X90.441 Y69.426 E138.93912
G1 X90.441 Y71.673 E139.00604
G1 X94.471 Y71.673 E139.12607
G1 X94.471 Y69.356 E139.19507
G1 X96.061 Y69.356 E139.24243
G1 X96.061 Y75.656 E139.43006
G1 X94.471 Y75.656 E139.47742
G1 X94.471 Y73.345 E139.54625
G1 X90.441 Y73.345 E139.66628
G1 X90.441 Y82.639 E139.94308
G1 X94.471 Y82.639 E140.06311
G1 X94.471 Y80.551 E140.12530
G1 X96.061 Y80.551 E140.17265
G1 X96.061 Y86.413 E140.34724
G1 X94.471 Y86.413 E140.39460
G1 X94.471 Y84.310 E140.45723
G1 X90.441 Y84.310 E140.57726
G1 X90.441 Y86.607 E140.64567
G1 X81.358 Y86.607 E140.91620
G0 F10500 X81.858 Y87.107
;TYPE:WALL-OUTER
G1 F1500 X81.858 Y89.341 E140.98273
G1 X87.781 Y89.341 E141.15914
G1 X87.781 Y92.012 E141.23869
G1 X78.565 Y92.012 E141.51317
G1 X78.565 Y89.341 E141.59273
G1 X79.626 Y89.341 E141.62433
G1 X79.626 Y87.107 E141.69086
G1 X78.660 Y87.107 E141.71963
G1 X78.660 Y80.867 E141.90548
G1 X76.419 Y80.867 E141.97223
G1 X76.419 Y87.107 E142.15807
G1 X67.155 Y87.107 E142.43399
G1 X67.155 Y68.926 E142.97548
G1 X71.833 Y68.926 E143.11480
G1 X71.833 Y67.278 E143.16389
G1 X73.761 Y67.278 E143.22131
G1 X73.761 Y68.926 E143.27039
G1 X76.419 Y68.926 E143.34956
G1 X76.419 Y75.227 E143.53722
G1 X78.660 Y75.227 E143.60397
G1 X78.660 Y68.926 E143.79163
G1 X79.626 Y68.926 E143.82040
G1 X79.626 Y66.659 E143.88792
G1 X78.565 Y66.659 E143.91952
G1 X78.565 Y63.988 E143.99907
G1 X87.781 Y63.988 E144.27356
G1 X87.781 Y66.659 E144.35311
G1 X81.858 Y66.659 E144.52952
G1 X81.858 Y68.926 E144.59703
G1 X90.941 Y68.926 E144.86756
G1 X90.941 Y71.173 E144.93448
G1 X93.971 Y71.173 E145.02472
G1 X93.971 Y68.856 E145.09373
G1 X96.561 Y68.856 E145.17087
G1 X96.561 Y76.156 E145.38829
G1 X93.971 Y76.156 E145.46543
G1 X93.971 Y73.845 E145.53426
G1 X90.941 Y73.845 E145.62450
G1 X90.941 Y82.139 E145.87152
G1 X93.971 Y82.139 E145.96177
G1 X93.971 Y80.051 E146.02396
G1 X96.561 Y80.051 E146.10110
G1 X96.561 Y86.913 E146.30547
G1 X93.971 Y86.913 E146.38261
G1 X93.971 Y84.810 E146.44524
G1 X90.941 Y84.810 E146.53549
G1 X90.941 Y87.107 E146.60390
G1 X81.858 Y87.107 E146.87442
G0 F10500 X82.895 Y86.431
;TYPE:FILL
G1 F2040 X79.334 Y82.870 E147.02441
G0 F10500 X78.907 Y80.191
G1 F2040 X89.497 Y69.601 E147.47046
G0 F10500 X87.278 Y69.601
G1 F2040 X90.847 Y73.169 E147.62077
G0 F10500 X93.000 Y73.169
G1 F2040 X94.322 Y71.847 E147.67645
G0 F10500 X94.645 Y71.524
G1 F2040 X95.885 Y70.284 E147.72868
G0 F10500 X95.885 Y71.136
G1 F2040 X94.644 Y69.896 E147.78093
G0 F10500 X94.362 Y73.454
G0 X90.550 Y73.454
G0 X90.265 Y75.905
G1 F2040 X79.738 Y86.431 E148.22431
G0 F10500 X80.017 Y86.716
G0 X80.017 Y89.732
G0 X79.408 Y90.015
G1 F2040 X80.729 Y91.336 E148.27995
G0 F10500 X81.904 Y91.336
G1 F2040 X83.226 Y90.014 E148.33563
G0 F10500 X86.479 Y90.015
G1 F2040 X87.106 Y90.641 E148.36202
G0 F10500 X81.467 Y89.732
G0 X81.467 Y86.716
G0 X86.809 Y86.431
G1 F2040 X90.426 Y82.814 E148.51437
G0 F10500 X93.420 Y82.814
G1 F2040 X95.885 Y85.279 E148.61819
G0 F10500 X95.885 Y84.427
G1 F2040 X94.645 Y85.666 E148.67040
G0 F10500 X94.362 Y84.419
G0 X90.550 Y84.419
G0 X89.966 Y86.431
G1 F2040 X79.333 Y75.798 E149.11826
G0 F10500 X79.334 Y72.693
G1 F2040 X82.426 Y69.601 E149.24850
G0 F10500 X80.207 Y69.601
G1 F2040 X90.265 Y79.659 E149.67214
G0 F10500 X81.467 Y69.317
G0 X81.467 Y66.268
G0 X86.044 Y65.983
G1 F2040 X87.104 Y64.923 E149.71679
G0 F10500 X83.661 Y65.983
G1 F2040 X82.340 Y64.662 E149.77243
G0 F10500 X80.294 Y64.662
G1 F2040 X79.239 Y65.717 E149.81687
G0 F10500 X80.017 Y66.268
G0 X80.017 Y69.317
G0 X79.051 Y75.618
G0 X76.028 Y75.618
G0 X75.356 Y69.600
G1 F2040 X67.829 Y77.126 E150.13388
G0 F10500 X67.829 Y78.436
G1 F2040 X75.743 Y86.350 E150.46722
G0 F10500 X75.743 Y83.355
G1 F2040 X72.667 Y86.431 E150.59678
G0 F10500 X68.753 Y86.431
G1 F2040 X67.829 Y85.507 E150.63570
G0 F10500 X67.829 Y84.198
G1 F2040 X76.126 Y75.901 E150.98517
G0 F10500 X75.743 Y72.208
G1 F2040 X73.136 Y69.601 E151.09498
G0 F10500 X73.085 Y69.549
G1 F2040 X72.507 Y68.971 E151.11932
G0 F10500 X72.224 Y69.317
G0 X68.285 Y69.600
G1 F2040 X67.829 Y70.055 E151.13851
G0 F10500 X67.829 Y71.365
G1 F2040 X76.494 Y80.029 E151.50346
G0 F10500 X75.843 Y79.750
;TYPE:SKIN
G1 F2580 X79.234 Y79.750 E151.60445
G0 F10500 X79.234 Y79.250
G1 F2580 X75.843 Y79.250 E151.70545
G0 F10500 X75.843 Y78.750
G1 F2580 X79.234 Y78.750 E151.80644
G0 F10500 X79.234 Y78.250
G1 F2580 X75.843 Y78.250 E151.90744
G0 F10500 X75.843 Y77.750
G1 F2580 X79.234 Y77.750 E152.00843
G0 F10500 X79.234 Y77.250
G1 F2580 X75.843 Y77.250 E152.10943
G0 F10500 X75.843 Y76.750
G1 F2580 X79.234 Y76.750 E152.21043
G0 F10500 X79.234 Y76.250
G1 F2580 X75.843 Y76.250 E152.31142
;LAYER:5
M106 S206
G0 F10500 X75.919 Y75.727 Z2.325
;TYPE:WALL-INNER
G1 F1800 X79.160 Y75.727 E152.40795
G1 X79.160 Y69.426 E152.59561
G1 X80.126 Y69.426 E152.62438
G1 X80.126 Y66.159 E152.72169
G1 X79.065 Y66.159 E152.75329
G1 X79.065 Y64.488 E152.80306
G1 X87.281 Y64.488 E153.04776
G1 X87.281 Y66.159 E153.09752
G1 X81.358 Y66.159 E153.27393
G1 X81.358 Y69.426 E153.37123
G1 X90.441 Y69.426 E153.64176
G1 X90.441 Y71.673 E153.70868
G1 X94.471 Y71.673 E153.82871
G1 X94.471 Y69.356 E153.89771
G1 X96.061 Y69.356 E153.94507
G1 X96.061 Y75.656 E154.13270
G1 X94.471 Y75.656 E154.18006
G1 X94.471 Y73.345 E154.24889
G1 X90.441 Y73.345 E154.36892
G1 X90.441 Y82.639 E154.64572
G1 X94.471 Y82.639 E154.76575
G1 X94.471 Y80.551 E154.82794
G1 X96.061 Y80.551 E154.87529
G1 X96.061 Y86.413 E155.04988
G1 X94.471 Y86.413 E155.09724
G1 X94.471 Y84.310 E155.15987
G1 X90.441 Y84.310 E155.27990
G1 X90.441 Y86.607 E155.34831
G1 X81.358 Y86.607 E155.61884
G1 X81.358 Y89.841 E155.71516
G1 X87.281 Y89.841 E155.89156
G1 X87.281 Y91.512 E155.94133
G1 X79.065 Y91.512 E156.18603
G1 X79.065 Y89.841 E156.23580
G1 X80.126 Y89.841 E156.26740
G1 X80.126 Y86.607 E156.36372
G1 X79.160 Y86.607 E156.39249
G1 X79.160 Y80.367 E156.57834
G1 X75.919 Y80.367 E156.67487
G1 X75.919 Y86.607 E156.86071
G1 X67.655 Y86.607 E157.10684
G1 X67.655 Y69.426 E157.61855
G1 X72.333 Y69.426 E157.75788
G1 X72.333 Y67.367 E157.81920
G1 X73.261 Y67.366 E157.84684
G1 X73.261 Y69.426 E157.90820
G1 X75.919 Y69.426 E157.98736
G1 X75.919 Y75.727 E158.17502
G0 F10500 X76.419 Y75.227
;TYPE:WALL-OUTER
G1 F1560 X78.660 Y75.227 E158.24177
G1 X78.660 Y68.926 E158.42943
G1 X79.626 Y68.926 E158.45820
G1 X79.626 Y66.659 E158.52572
G1 X78.565 Y66.659 E158.55732
G1 X78.565 Y63.988 E158.63688
G1 X87.781 Y63.988 E158.91136
G1 X87.781 Y66.659 E158.99091
G1 X81.858 Y66.659 E159.16732
G1 X81.858 Y68.926 E159.23484
G1 X90.941 Y68.926 E159.50536
G1 X90.941 Y71.173 E159.57228
G1 X93.971 Y71.173 E159.66253
G1 X93.971 Y68.856 E159.73153
G1 X96.561 Y68.856 E159.80867
G1 X96.561 Y76.156 E160.02609
G1 X93.971 Y76.156 E160.10323
G1 X93.971 Y73.845 E160.17206
G1 X90.941 Y73.845 E160.26230
G1 X90.941 Y82.139 E160.50933
G1 X93.971 Y82.139 E160.59957
G1 X93.971 Y80.051 E160.66176
G1 X96.561 Y80.051 E160.73890
G1 X96.561 Y86.913 E160.94327
G1 X93.971 Y86.913 E161.02041
G1 X93.971 Y84.810 E161.08304
G1 X90.941 Y84.810 E161.17329
G1 X90.941 Y87.107 E161.24170
G1 X81.858 Y87.107 E161.51222
G1 X81.858 Y89.341 E161.57876
G1 X87.781 Y89.341 E161.75517
G1 X87.781 Y92.012 E161.83472
G1 X78.565 Y92.012 E162.10920
G1 X78.565 Y89.341 E162.18875
G1 X79.626 Y89.341 E162.22035
G1 X79.626 Y87.107 E162.28689
G1 X78.660 Y87.107 E162.31566
G1 X78.660 Y80.867 E162.50151
G1 X76.419 Y80.867 E162.56825
G1 X76.419 Y87.107 E162.75410
G1 X67.155 Y87.107 E163.03001
G1 X67.155 Y68.926 E163.57150
G1 X71.833 Y68.926 E163.71083
G1 X71.833 Y67.071 E163.76608
G1 X71.032 Y67.071 E163.78994
G1 X71.041 Y66.977 E163.79275
G1 X71.074 Y66.867 E163.79617
G1 X74.437 Y66.866 E163.89633
G1 X74.470 Y66.976 E163.89975
G1 X74.479 Y67.071 E163.90259
G1 X73.761 Y67.071 E163.92398
G1 X73.761 Y68.926 E163.97923
G1 X76.419 Y68.926 E164.05839
G1 X76.419 Y75.227 E164.24606
G0 F10500 X76.126 Y75.901
;TYPE:FILL
G1 F2100 X67.829 Y84.198 E164.59553
G0 F10500 X67.829 Y85.507
G1 F2100 X68.753 Y86.431 E164.63444
G0 F10500 X72.667 Y86.431
G1 F2100 X75.743 Y83.355 E164.76401
G0 F10500 X75.743 Y86.350
G1 F2100 X67.829 Y78.436 E165.09734
G0 F10500 X67.829 Y77.126
G1 F2100 X75.356 Y69.600 E165.41436
G0 F10500 X73.136 Y69.601
G1 F2100 X75.743 Y72.208 E165.52417
G0 F10500 X76.028 Y75.618
G0 X79.051 Y75.618
G0 X79.334 Y72.693
G1 F2100 X82.426 Y69.601 E165.65440
G0 F10500 X80.207 Y69.601
G1 F2100 X90.265 Y79.659 E166.07805
G0 F10500 X90.265 Y75.905
G1 F2100 X79.738 Y86.431 E166.52142
G0 F10500 X82.895 Y86.431
G1 F2100 X79.334 Y82.870 E166.67141
G0 F10500 X78.907 Y80.191
G1 F2100 X89.497 Y69.601 E167.11746
G0 F10500 X87.278 Y69.601
G1 F2100 X90.847 Y73.169 E167.26777
G0 F10500 X93.000 Y73.169
G1 F2100 X94.322 Y71.847 E167.32345
G0 F10500 X94.645 Y71.524
G1 F2100 X95.885 Y70.284 E167.37568
G0 F10500 X95.885 Y71.136
G1 F2100 X94.644 Y69.896 E167.42793
G0 F10500 X94.362 Y71.564
G0 X90.550 Y71.564
G0 X81.467 Y69.317
G0 X81.467 Y66.268
G0 X87.104 Y64.923
G1 F2100 X86.044 Y65.983 E167.47258
G0 F10500 X83.661 Y65.983
G1 F2100 X82.340 Y64.662 E167.52822
G0 F10500 X80.294 Y64.662
G1 F2100 X79.239 Y65.717 E167.57266
G0 F10500 X80.017 Y66.268
G0 X80.017 Y69.317
G0 X79.051 Y75.618
G0 X76.028 Y75.618
G0 X73.085 Y69.549
G1 F2100 X72.507 Y68.971 E167.59700
G0 F10500 X72.224 Y69.317
G0 X68.285 Y69.600
G1 F2100 X67.829 Y70.055 E167.61619
G0 F10500 X67.829 Y71.365
G1 F2100 X76.494 Y80.029 E167.98114
G0 F10500 X79.051 Y80.476
G0 X80.017 Y86.716
G0 X80.017 Y89.732
G0 X79.408 Y90.015
G1 F2100 X80.729 Y91.336 E168.03678
G0 F10500 X81.904 Y91.336
G1 F2100 X83.226 Y90.014 E168.09246
G0 F10500 X86.479 Y90.015
G1 F2100 X87.106 Y90.641 E168.11885
G0 F10500 X81.467 Y89.732
G0 X81.467 Y86.716
G0 X86.809 Y86.431
G1 F2100 X90.426 Y82.814 E168.27120
G0 F10500 X93.420 Y82.814
G1 F2100 X95.885 Y85.279 E168.37502
G0 F10500 X95.885 Y84.427
G1 F2100 X94.645 Y85.666 E168.42723
G0 F10500 X94.362 Y84.419
G0 X90.550 Y84.419
G0 X89.966 Y86.431
G1 F2100 X79.333 Y75.798 E168.87509
G0 F10500 X79.234 Y75.975
;TYPE:SKIN
G1 F2640 X75.844 Y79.365 E169.01788
G0 F10500 X75.844 Y80.072
G1 F2640 X79.234 Y76.682 E169.16067
G0 F10500 X79.234 Y77.390
G1 F2640 X76.432 Y80.191 E169.27867
G0 F10500 X77.139 Y80.191
G1 F2640 X79.234 Y78.097 E169.36689
G0 F10500 X79.234 Y78.804
G1 F2640 X77.846 Y80.191 E169.42533
G0 F10500 X78.553 Y80.191
G1 F2640 X79.234 Y79.511 E169.45399
G0 F10500 X75.844 Y78.658
G1 F2640 X78.601 Y75.901 E169.57012
G0 F10500 X77.894 Y75.901
G1 F2640 X75.844 Y77.951 E169.65646
G0 F10500 X75.844 Y77.244
G1 F2640 X77.187 Y75.901 E169.71303
G0 F10500 X76.479 Y75.901
G1 F2640 X75.844 Y76.537 E169.73980
;LAYER:6
G0 F10500 X75.919 Y75.727 Z2.705
;TYPE:WALL-INNER
G1 F1800 X79.160 Y75.727 E169.83632
G1 X79.160 Y69.426 E170.02399
G1 X80.126 Y69.426 E170.05276
G1 X80.126 Y66.159 E170.15006
G1 X79.065 Y66.159 E170.18166
G1 X79.065 Y64.488 E170.23143
G1 X87.281 Y64.488 E170.47613
G1 X87.281 Y66.159 E170.52590
G1 X81.358 Y66.159 E170.70231
G1 X81.358 Y69.426 E170.79961
G1 X90.441 Y69.426 E171.07013
G1 X90.441 Y71.673 E171.13705
G1 X94.471 Y71.673 E171.25708
G1 X94.471 Y69.356 E171.32609
G1 X96.061 Y69.356 E171.37344
G1 X96.061 Y75.656 E171.56108
G1 X94.471 Y75.656 E171.60844
G1 X94.471 Y73.345 E171.67726
G1 X90.441 Y73.345 E171.79729
G1 X90.441 Y82.639 E172.07410
G1 X94.471 Y82.639 E172.19413
G1 X94.471 Y80.551 E172.25631
G1 X96.061 Y80.551 E172.30367
G1 X96.061 Y86.413 E172.47826
G1 X94.471 Y86.413 E172.52561
G1 X94.471 Y84.310 E172.58825
G1 X90.441 Y84.310 E172.70828
G1 X90.441 Y86.607 E172.77669
G1 X81.358 Y86.607 E173.04721
G1 X81.358 Y89.841 E173.14353
G1 X87.281 Y89.841 E173.31994
G1 X87.281 Y91.512 E173.36971
G1 X79.065 Y91.512 E173.61441
G1 X79.065 Y89.841 E173.66417
G1 X80.126 Y89.841 E173.69577
G1 X80.126 Y86.607 E173.79209
G1 X79.160 Y86.607 E173.82086
G1 X79.160 Y80.367 E174.00671
G1 X75.919 Y80.367 E174.10324
G1 X75.919 Y86.607 E174.28909
G1 X67.655 Y86.607 E174.53522
G1 X67.655 Y69.426 E175.04693
G1 X72.333 Y69.426 E175.18625
G1 X72.333 Y66.958 E175.25976
G1 X73.261 Y66.957 E175.28740
G1 X73.261 Y69.426 E175.36093
G1 X75.919 Y69.426 E175.44010
G1 X75.919 Y75.727 E175.62776
G0 F10500 X76.419 Y75.227
;TYPE:WALL-OUTER
G1 F1560 X78.660 Y75.227 E175.69451
G1 X78.660 Y68.926 E175.88217
G1 X79.626 Y68.926 E175.91094
G1 X79.626 Y66.659 E175.97846
G1 X78.565 Y66.659 E176.01006
G1 X78.565 Y63.988 E176.08961
G1 X87.781 Y63.988 E176.36410
G1 X87.781 Y66.659 E176.44365
G1 X81.858 Y66.659 E176.62005
G1 X81.858 Y68.926 E176.68757
G1 X90.941 Y68.926 E176.95810
G1 X90.941 Y71.173 E177.02502
G1 X93.971 Y71.173 E177.11526
G1 X93.971 Y68.856 E177.18427
G1 X96.561 Y68.856 E177.26141
G1 X96.561 Y76.156 E177.47883
G1 X93.971 Y76.156 E177.55597
G1 X93.971 Y73.845 E177.62480
G1 X90.941 Y73.845 E177.71504
G1 X90.941 Y82.139 E177.96206
G1 X93.971 Y82.139 E178.05231
G1 X93.971 Y80.051 E178.11450
G1 X96.561 Y80.051 E178.19163
G1 X96.561 Y86.913 E178.39601
G1 X93.971 Y86.913 E178.47315
G1 X93.971 Y84.810 E178.53578
G1 X90.941 Y84.810 E178.62603
G1 X90.941 Y87.107 E178.69444
G1 X81.858 Y87.107 E178.96496
G1 X81.858 Y89.341 E179.03150
G1 X87.781 Y89.341 E179.20790
G1 X87.781 Y92.012 E179.28745
G1 X78.565 Y92.012 E179.56194
G1 X78.565 Y89.341 E179.64149
G1 X79.626 Y89.341 E179.67309
G1 X79.626 Y87.107 E179.73963
G1 X78.660 Y87.107 E179.76840
G1 X78.660 Y80.867 E179.95424
G1 X76.419 Y80.867 E180.02099
G1 X76.419 Y87.107 E180.20684
G1 X67.155 Y87.107 E180.48275
G1 X67.155 Y68.926 E181.02424
G1 X71.833 Y68.926 E181.16357
G1 X71.833 Y67.071 E181.21882
G1 X70.684 Y67.071 E181.25304
G1 X70.683 Y66.802 E181.26105
G1 X71.076 Y66.861 E181.27289
G1 X71.141 Y66.650 E181.27946
G1 X71.243 Y66.460 E181.28588
G1 X74.266 Y66.455 E181.37592
G1 X74.372 Y66.652 E181.38258
G1 X74.470 Y66.977 E181.39269
G1 X74.479 Y67.071 E181.39551
G1 X73.761 Y67.071 E181.41689
G1 X73.761 Y68.926 E181.47214
G1 X76.419 Y68.926 E181.55130
G1 X76.419 Y75.227 E181.73897
G0 F10500 X76.126 Y75.901
;TYPE:FILL
G1 F2100 X67.829 Y84.198 E182.08844
G0 F10500 X67.829 Y85.507
G1 F2100 X68.753 Y86.431 E182.12736
G0 F10500 X72.667 Y86.431
G1 F2100 X75.743 Y83.355 E182.25692
G0 F10500 X75.743 Y86.350
G1 F2100 X67.829 Y78.436 E182.59026
G0 F10500 X67.829 Y77.126
G1 F2100 X75.356 Y69.600 E182.90727
G0 F10500 X73.136 Y69.601
G1 F2100 X75.743 Y72.208 E183.01708
G0 F10500 X76.028 Y75.618
G0 X79.051 Y75.618
G0 X79.334 Y72.693
G1 F2100 X82.426 Y69.601 E183.14731
G0 F10500 X80.207 Y69.601
G1 F2100 X90.265 Y79.659 E183.57096
G0 F10500 X90.265 Y75.905
G1 F2100 X79.738 Y86.431 E184.01434
G0 F10500 X82.895 Y86.431
G1 F2100 X79.334 Y82.870 E184.16432
G0 F10500 X78.907 Y80.191
G1 F2100 X89.497 Y69.601 E184.61038
G0 F10500 X87.278 Y69.601
G1 F2100 X90.847 Y73.169 E184.76068
G0 F10500 X93.000 Y73.169
G1 F2100 X94.322 Y71.847 E184.81636
G0 F10500 X94.645 Y71.524
G1 F2100 X95.885 Y70.284 E184.86859
G0 F10500 X95.885 Y71.136
G1 F2100 X94.644 Y69.896 E184.92084
G0 F10500 X94.362 Y71.564
G0 X90.550 Y71.564
G0 X81.467 Y69.317
G0 X81.467 Y66.268
G0 X87.104 Y64.923
G1 F2100 X86.044 Y65.983 E184.96549
G0 F10500 X83.661 Y65.983
G1 F2100 X82.340 Y64.662 E185.02113
G0 F10500 X80.294 Y64.662
G1 F2100 X79.239 Y65.717 E185.06557
G0 F10500 X80.017 Y66.268
G0 X80.017 Y69.317
G0 X79.051 Y75.618
G0 X76.028 Y75.618
G0 X73.085 Y69.550
G1 F2100 X72.507 Y68.971 E185.08993
G0 F10500 X72.224 Y69.317
G0 X68.285 Y69.600
G1 F2100 X67.829 Y70.055 E185.10912
G0 F10500 X67.829 Y71.365
G1 F2100 X76.494 Y80.029 E185.47407
G0 F10500 X79.051 Y80.476
G0 X80.017 Y86.716
G0 X80.017 Y89.732
G0 X79.408 Y90.015
G1 F2100 X80.729 Y91.336 E185.52971
G0 F10500 X81.904 Y91.336
G1 F2100 X83.226 Y90.014 E185.58539
G0 F10500 X86.479 Y90.015
G1 F2100 X87.106 Y90.641 E185.61178
G0 F10500 X81.467 Y89.732
G0 X81.467 Y86.716
G0 X86.809 Y86.431
G1 F2100 X90.426 Y82.814 E185.76413
G0 F10500 X93.420 Y82.814
G1 F2100 X95.885 Y85.279 E185.86795
G0 F10500 X95.885 Y84.427
G1 F2100 X94.645 Y85.666 E185.92016
G0 F10500 X94.362 Y84.419
G0 X90.550 Y84.419
G0 X89.966 Y86.431
G1 F2100 X79.333 Y75.798 E186.36803
G0 F10500 X79.084 Y75.902
;TYPE:SKIN
G1 F2640 X79.234 Y76.052 E186.37434
G0 F10500 X79.234 Y76.759
G1 F2640 X78.377 Y75.902 E186.41044
G0 F10500 X77.670 Y75.902
G1 F2640 X79.234 Y77.467 E186.47634
G0 F10500 X79.234 Y78.174
G1 F2640 X76.962 Y75.902 E186.57203
G0 F10500 X76.255 Y75.902
G1 F2640 X79.234 Y78.881 E186.69751
G0 F10500 X79.234 Y79.588
G1 F2640 X75.843 Y76.197 E186.84034
G0 F10500 X75.843 Y76.904
G1 F2640 X79.130 Y80.190 E186.97877
G0 F10500 X78.423 Y80.190
G1 F2640 X75.843 Y77.611 E187.08741
G0 F10500 X75.843 Y78.318
G1 F2640 X77.715 Y80.190 E187.16626
G0 F10500 X77.008 Y80.190
G1 F2640 X75.843 Y79.025 E187.21533
G0 F10500 X75.843 Y79.732
G1 F2640 X76.301 Y80.190 E187.23462
;LAYER:7
M106 S209
G0 F10500 X75.919 Y80.367 Z3.085
;TYPE:WALL-INNER
G1 F1740 X75.919 Y86.607 E187.42047
G1 X67.655 Y86.607 E187.66660
G1 X67.655 Y69.426 E188.17831
G1 X72.333 Y69.426 E188.31764
G1 X72.333 Y66.571 E188.40267
G1 X71.767 Y66.571 E188.41953
G1 X71.787 Y66.546 E188.42048
G1 X72.334 Y66.545 E188.43677
G1 X73.725 Y66.546 E188.47820
G1 X73.745 Y66.571 E188.47915
G1 X73.261 Y66.571 E188.49357
G1 X73.261 Y69.426 E188.57860
G1 X75.919 Y69.426 E188.65776
G1 X75.919 Y75.727 E188.84543
G1 X79.160 Y75.727 E188.94196
G1 X79.160 Y69.426 E189.12962
G1 X80.126 Y69.426 E189.15839
G1 X80.126 Y66.159 E189.25570
G1 X79.065 Y66.159 E189.28730
G1 X79.065 Y64.488 E189.33706
G1 X87.281 Y64.488 E189.58176
G1 X87.281 Y66.159 E189.63153
G1 X81.358 Y66.159 E189.80794
G1 X81.358 Y69.426 E189.90524
G1 X90.441 Y69.426 E190.17576
G1 X90.441 Y71.673 E190.24269
G1 X94.471 Y71.673 E190.36271
G1 X94.471 Y69.356 E190.43172
G1 X96.061 Y69.356 E190.47908
G1 X96.061 Y75.656 E190.66671
G1 X94.471 Y75.656 E190.71407
G1 X94.471 Y73.345 E190.78290
G1 X90.441 Y73.345 E190.90293
G1 X90.441 Y82.639 E191.17973
G1 X94.471 Y82.639 E191.29976
G1 X94.471 Y80.551 E191.36195
G1 X96.061 Y80.551 E191.40930
G1 X96.061 Y86.413 E191.58389
G1 X94.471 Y86.413 E191.63125
G1 X94.471 Y84.310 E191.69388
G1 X90.441 Y84.310 E191.81391
G1 X90.441 Y86.607 E191.88232
G1 X81.358 Y86.607 E192.15284
G1 X81.358 Y89.841 E192.24916
G1 X87.281 Y89.841 E192.42557
G1 X87.281 Y91.512 E192.47534
G1 X79.065 Y91.512 E192.72004
G1 X79.065 Y89.841 E192.76981
G1 X80.126 Y89.841 E192.80141
G1 X80.126 Y86.607 E192.89773
G1 X79.160 Y86.607 E192.92650
G1 X79.160 Y80.367 E193.11235
G1 X75.919 Y80.367 E193.20887
G0 F10500 X76.419 Y80.867
;TYPE:WALL-OUTER
G1 F1500 X76.419 Y87.107 E193.39472
G1 X67.155 Y87.107 E193.67064
G1 X67.155 Y68.926 E194.21213
G1 X71.833 Y68.926 E194.35145
G1 X71.833 Y67.071 E194.40670
G1 X70.650 Y67.071 E194.44194
G1 X70.650 Y67.159 E194.44456
G1 X69.968 Y67.159 E194.46487
G1 X69.967 Y66.665 E194.47958
G1 X70.650 Y66.665 E194.49992
G1 X70.650 Y66.797 E194.50386
G1 X71.076 Y66.861 E194.51669
G1 X71.141 Y66.650 E194.52326
G1 X71.301 Y66.351 E194.53336
G1 X71.520 Y66.085 E194.54362
G1 X71.567 Y66.046 E194.54544
G1 X73.944 Y66.045 E194.61624
G1 X73.992 Y66.085 E194.61810
G1 X74.211 Y66.351 E194.62836
G1 X74.372 Y66.652 E194.63853
G1 X74.470 Y66.977 E194.64864
G1 X74.479 Y67.071 E194.65145
G1 X73.761 Y67.071 E194.67283
G1 X73.761 Y68.926 E194.72808
G1 X76.419 Y68.926 E194.80725
G1 X76.419 Y75.227 E194.99491
G1 X78.660 Y75.227 E195.06166
G1 X78.660 Y68.926 E195.24932
G1 X79.626 Y68.926 E195.27809
G1 X79.626 Y66.659 E195.34561
G1 X78.565 Y66.659 E195.37721
G1 X78.565 Y63.988 E195.45676
G1 X87.781 Y63.988 E195.73125
G1 X87.781 Y66.659 E195.81080
G1 X81.858 Y66.659 E195.98720
G1 X81.858 Y68.926 E196.05472
G1 X90.941 Y68.926 E196.32525
G1 X90.941 Y71.173 E196.39217
G1 X93.971 Y71.173 E196.48241
G1 X93.971 Y68.856 E196.55142
G1 X96.561 Y68.856 E196.62856
G1 X96.561 Y76.156 E196.84598
G1 X93.971 Y76.156 E196.92312
G1 X93.971 Y73.845 E196.99195
G1 X90.941 Y73.845 E197.08219
G1 X90.941 Y82.139 E197.32921
G1 X93.971 Y82.139 E197.41946
G1 X93.971 Y80.051 E197.48164
G1 X96.561 Y80.051 E197.55878
G1 X96.561 Y86.913 E197.76316
G1 X93.971 Y86.913 E197.84030
G1 X93.971 Y84.810 E197.90293
G1 X90.941 Y84.810 E197.99317
G1 X90.941 Y87.107 E198.06159
G1 X81.858 Y87.107 E198.33211
G1 X81.858 Y89.341 E198.39865
G1 X87.781 Y89.341 E198.57505
G1 X87.781 Y92.012 E198.65460
G1 X78.565 Y92.012 E198.92909
G1 X78.565 Y89.341 E199.00864
G1 X79.626 Y89.341 E199.04024
G1 X79.626 Y87.107 E199.10678
G1 X78.660 Y87.107 E199.13555
G1 X78.660 Y80.867 E199.32139
G1 X76.419 Y80.867 E199.38814
G0 F10500 X76.655 Y80.190
;TYPE:FILL
G1 F2040 X67.829 Y71.365 E199.75987
G0 F10500 X67.829 Y70.055
G1 F2040 X68.285 Y69.600 E199.77905
G0 F10500 X72.224 Y69.317
G0 X72.507 Y68.971
G1 F2040 X73.085 Y69.549 E199.80340
G0 F10500 X73.136 Y69.601
G1 F2040 X75.743 Y72.208 E199.91321
G0 F10500 X75.356 Y69.600
G1 F2040 X67.829 Y77.126 E200.23022
G0 F10500 X67.829 Y78.436
G1 F2040 X75.743 Y86.350 E200.56356
G0 F10500 X75.743 Y83.355
G1 F2040 X72.667 Y86.431 E200.69312
G0 F10500 X68.753 Y86.431
G1 F2040 X67.829 Y85.507 E200.73204
G0 F10500 X67.829 Y84.198
G1 F2040 X76.127 Y75.900 E201.08155
G0 F10500 X79.333 Y75.798
G1 F2040 X89.966 Y86.431 E201.52942
G0 F10500 X86.809 Y86.431
G1 F2040 X90.426 Y82.814 E201.68177
G0 F10500 X93.420 Y82.814
G1 F2040 X95.885 Y85.279 E201.78559
G0 F10500 X95.885 Y84.427
G1 F2040 X94.645 Y85.666 E201.83780
G0 F10500 X94.362 Y84.419
G0 X90.550 Y84.419
G0 X81.467 Y86.716
G0 X81.467 Y89.732
G0 X87.106 Y90.641
G1 F2040 X86.479 Y90.015 E201.86419
G0 F10500 X83.226 Y90.014
G1 F2040 X81.904 Y91.336 E201.91987
G0 F10500 X80.729 Y91.336
G1 F2040 X79.408 Y90.015 E201.97551
G0 F10500 X80.017 Y89.732
G0 X80.017 Y86.716
G0 X79.738 Y86.431
G1 F2040 X90.265 Y75.905 E202.41889
G0 F10500 X90.550 Y73.454
G0 X90.847 Y73.169
G1 F2040 X87.278 Y69.601 E202.56919
G0 F10500 X89.497 Y69.601
G1 F2040 X78.907 Y80.191 E203.01524
G0 F10500 X79.334 Y82.870
G1 F2040 X82.895 Y86.431 E203.16523
G0 F10500 X90.265 Y79.659
G1 F2040 X80.207 Y69.601 E203.58888
G0 F10500 X82.426 Y69.601
G1 F2040 X79.334 Y72.693 E203.71911
G0 F10500 X80.017 Y69.317
G0 X80.017 Y66.268
G0 X79.239 Y65.717
G1 F2040 X80.294 Y64.662 E203.76355
G0 F10500 X82.340 Y64.662
G1 F2040 X83.661 Y65.983 E203.81919
G0 F10500 X86.044 Y65.983
G1 F2040 X87.104 Y64.923 E203.86384
G0 F10500 X81.467 Y66.268
G0 X81.467 Y69.317
G0 X90.550 Y71.564
G0 X94.362 Y71.564
G0 X94.644 Y69.896
G1 F2040 X95.885 Y71.136 E203.91609
G0 F10500 X95.885 Y70.284
G1 F2040 X94.645 Y71.524 E203.96832
G0 F10500 X94.322 Y71.847
G1 F2040 X93.000 Y73.169 E204.02400
;LAYER:8
G0 F10500 X94.471 Y73.345 Z3.465
;TYPE:WALL-INNER
G1 F1740 X90.441 Y73.345 E204.14403
G1 X90.441 Y82.639 E204.42083
G1 X94.471 Y82.639 E204.54086
G1 X94.471 Y80.551 E204.60305
G1 X96.061 Y80.551 E204.65040
G1 X96.061 Y86.413 E204.82499
G1 X94.471 Y86.413 E204.87235
G1 X94.471 Y84.310 E204.93498
G1 X90.441 Y84.310 E205.05501
G1 X90.441 Y86.607 E205.12342
G1 X81.358 Y86.607 E205.39395
G1 X81.358 Y89.841 E205.49026
G1 X87.281 Y89.841 E205.66667
G1 X87.281 Y91.512 E205.71644
G1 X79.065 Y91.512 E205.96114
G1 X79.065 Y89.841 E206.01091
G1 X80.126 Y89.841 E206.04251
G1 X80.126 Y86.607 E206.13883
G1 X79.160 Y86.607 E206.16760
G1 X79.160 Y80.367 E206.35345
G1 X75.919 Y80.367 E206.44997
G1 X75.919 Y86.607 E206.63582
G1 X67.655 Y86.607 E206.88195
G1 X67.655 Y69.426 E207.39366
G1 X72.333 Y69.426 E207.53299
G1 X72.333 Y66.571 E207.61802
G1 X71.767 Y66.571 E207.63488
G1 X71.875 Y66.440 E207.63993
G1 X72.063 Y66.285 E207.64719
G1 X72.278 Y66.169 E207.65447
G1 X72.395 Y66.134 E207.65810
G1 X73.021 Y66.135 E207.67675
G1 X73.117 Y66.135 E207.67961
G1 X73.235 Y66.170 E207.68327
G1 X73.449 Y66.285 E207.69051
G1 X73.637 Y66.440 E207.69777
G1 X73.745 Y66.571 E207.70282
G1 X73.261 Y66.571 E207.71724
G1 X73.261 Y69.426 E207.80227
G1 X75.919 Y69.426 E207.88143
G1 X75.919 Y75.727 E208.06910
G1 X79.160 Y75.727 E208.16563
G1 X79.160 Y69.426 E208.35329
G1 X80.126 Y69.426 E208.38206
G1 X80.126 Y66.159 E208.47936
G1 X79.065 Y66.159 E208.51096
G1 X79.065 Y64.488 E208.56073
G1 X87.281 Y64.488 E208.80543
G1 X87.281 Y66.159 E208.85520
G1 X81.358 Y66.159 E209.03161
G1 X81.358 Y69.426 E209.12891
G1 X90.441 Y69.426 E209.39943
G1 X90.441 Y71.673 E209.46636
G1 X94.471 Y71.673 E209.58638
G1 X94.471 Y69.356 E209.65539
G1 X96.061 Y69.356 E209.70275
G1 X96.061 Y75.656 E209.89038
G1 X94.471 Y75.656 E209.93774
G1 X94.471 Y73.345 E210.00657
G0 F10500 X93.971 Y73.845
;TYPE:WALL-OUTER
G1 F1500 X90.941 Y73.845 E210.09681
G1 X90.941 Y82.139 E210.34383
G1 X93.971 Y82.139 E210.43408
G1 X93.971 Y80.051 E210.49626
G1 X96.561 Y80.051 E210.57340
G1 X96.561 Y86.913 E210.77778
G1 X93.971 Y86.913 E210.85492
G1 X93.971 Y84.810 E210.91755
G1 X90.941 Y84.810 E211.00779
G1 X90.941 Y87.107 E211.07621
G1 X81.858 Y87.107 E211.34673
G1 X81.858 Y89.341 E211.41327
G1 X87.781 Y89.341 E211.58967
G1 X87.781 Y92.012 E211.66922
G1 X78.565 Y92.012 E211.94371
G1 X78.565 Y89.341 E212.02326
G1 X79.626 Y89.341 E212.05486
G1 X79.626 Y87.107 E212.12140
G1 X78.660 Y87.107 E212.15017
G1 X78.660 Y80.867 E212.33601
G1 X76.419 Y80.867 E212.40276
G1 X76.419 Y87.107 E212.58861
G1 X67.155 Y87.107 E212.86452
G1 X67.155 Y68.926 E213.40601
G1 X71.833 Y68.926 E213.54534
G1 X71.833 Y67.071 E213.60059
G1 X70.650 Y67.071 E213.63582
G1 X70.650 Y67.159 E213.63844
G1 X69.252 Y67.159 E213.68008
G1 X69.251 Y66.665 E213.69479
G1 X70.650 Y66.665 E213.73646
G1 X70.650 Y66.797 E213.74039
G1 X71.076 Y66.861 E213.75322
G1 X71.141 Y66.650 E213.75980
G1 X71.301 Y66.351 E213.76990
G1 X71.520 Y66.085 E213.78016
G1 X71.786 Y65.865 E213.79044
G1 X72.086 Y65.705 E213.80057
G1 X72.322 Y65.634 E213.80791
G1 X73.020 Y65.635 E213.82869
G1 X73.192 Y65.634 E213.83382
G1 X73.426 Y65.705 E213.84110
G1 X73.726 Y65.866 E213.85124
G1 X73.992 Y66.085 E213.86150
G1 X74.211 Y66.351 E213.87176
G1 X74.372 Y66.652 E213.88193
G1 X74.470 Y66.977 E213.89204
G1 X74.479 Y67.071 E213.89485
G1 X73.761 Y67.071 E213.91624
G1 X73.761 Y68.926 E213.97149
G1 X76.419 Y68.926 E214.05065
G1 X76.419 Y75.227 E214.23832
G1 X78.660 Y75.227 E214.30506
G1 X78.660 Y68.926 E214.49272
G1 X79.626 Y68.926 E214.52150
G1 X79.626 Y66.659 E214.58901
G1 X78.565 Y66.659 E214.62061
G1 X78.565 Y63.988 E214.70017
G1 X87.781 Y63.988 E214.97465
G1 X87.781 Y66.659 E215.05420
G1 X81.858 Y66.659 E215.23061
G1 X81.858 Y68.926 E215.29813
G1 X90.941 Y68.926 E215.56865
G1 X90.941 Y71.173 E215.63557
G1 X93.971 Y71.173 E215.72582
G1 X93.971 Y68.856 E215.79482
G1 X96.561 Y68.856 E215.87196
G1 X96.561 Y76.156 E216.08938
G1 X93.971 Y76.156 E216.16652
G1 X93.971 Y73.845 E216.23535
G0 F10500 X93.000 Y73.169
;TYPE:FILL
G1 F2040 X94.322 Y71.847 E216.29103
G0 F10500 X94.645 Y71.524
G1 F2040 X95.885 Y70.284 E216.34326
G0 F10500 X95.885 Y71.136
G1 F2040 X94.644 Y69.896 E216.39551
G0 F10500 X94.362 Y71.564
G0 X90.847 Y73.169
G1 F2040 X87.278 Y69.601 E216.54582
G0 F10500 X89.497 Y69.601
G1 F2040 X78.907 Y80.191 E216.99187
G0 F10500 X76.655 Y80.190
G1 F2040 X67.829 Y71.365 E217.36360
G0 F10500 X67.829 Y70.055
G1 F2040 X68.285 Y69.600 E217.38279
G0 F10500 X72.224 Y69.317
G0 X72.507 Y68.971
G1 F2040 X73.085 Y69.549 E217.40713
G0 F10500 X73.136 Y69.601
G1 F2040 X75.743 Y72.208 E217.51694
G0 F10500 X75.356 Y69.600
G1 F2040 X67.829 Y77.126 E217.83395
G0 F10500 X67.829 Y78.436
G1 F2040 X75.743 Y86.350 E218.16729
G0 F10500 X75.743 Y83.355
G1 F2040 X72.667 Y86.431 E218.29685
G0 F10500 X68.753 Y86.431
G1 F2040 X67.829 Y85.507 E218.33577
G0 F10500 X67.829 Y84.198
G1 F2040 X76.127 Y75.900 E218.68528
G0 F10500 X79.333 Y75.798
G1 F2040 X89.966 Y86.431 E219.13315
G0 F10500 X86.809 Y86.431
G1 F2040 X90.426 Y82.814 E219.28550
G0 F10500 X93.420 Y82.814
G1 F2040 X95.885 Y85.279 E219.38932
G0 F10500 X95.885 Y84.427
G1 F2040 X94.645 Y85.666 E219.44153
G0 F10500 X94.362 Y84.419
G0 X90.550 Y84.419
G0 X81.467 Y86.716
G0 X81.467 Y89.732
G0 X87.106 Y90.641
G1 F2040 X86.479 Y90.015 E219.46792
G0 F10500 X83.226 Y90.014
G1 F2040 X81.904 Y91.336 E219.52360
G0 F10500 X80.729 Y91.336
G1 F2040 X79.408 Y90.015 E219.57924
G0 F10500 X80.017 Y89.732
G0 X80.017 Y86.716
G0 X79.738 Y86.431
G1 F2040 X90.265 Y75.905 E220.02262
G0 F10500 X90.265 Y79.659
G1 F2040 X80.207 Y69.601 E220.44626
G0 F10500 X82.426 Y69.601
G1 F2040 X79.334 Y72.693 E220.57650
G0 F10500 X80.017 Y69.317
G0 X80.017 Y66.268
G0 X79.239 Y65.717
G1 F2040 X80.294 Y64.662 E220.62093
G0 F10500 X82.340 Y64.662
G1 F2040 X83.661 Y65.983 E220.67657
G0 F10500 X86.044 Y65.983
G1 F2040 X87.104 Y64.923 E220.72122
G0 F10500 X81.467 Y66.268
G0 X81.467 Y69.317
G0 X79.334 Y82.870
G1 F2040 X82.895 Y86.431 E220.87121
;LAYER:9
G0 F10500 X81.358 Y86.607 Z3.845
;TYPE:WALL-INNER
G1 F1800 X81.358 Y89.841 E220.96753
G1 X87.281 Y89.841 E221.14394
G1 X87.281 Y91.512 E221.19371
G1 X79.065 Y91.512 E221.43841
G1 X79.065 Y89.841 E221.48817
G1 X80.126 Y89.841 E221.51977
G1 X80.126 Y86.607 E221.61609
G1 X79.160 Y86.607 E221.64486
G1 X79.160 Y80.367 E221.83071
G1 X75.919 Y80.367 E221.92724
G1 X75.919 Y86.607 E222.11309
G1 X67.655 Y86.607 E222.35922
G1 X67.655 Y69.426 E222.87093
G1 X72.333 Y69.426 E223.01025
G1 X72.333 Y66.571 E223.09528
G1 X71.767 Y66.571 E223.11214
G1 X71.875 Y66.440 E223.11720
G1 X72.063 Y66.285 E223.12446
G1 X72.278 Y66.169 E223.13173
G1 X72.513 Y66.099 E223.13903
G1 X72.756 Y66.075 E223.14631
G1 X72.999 Y66.099 E223.15358
G1 X73.233 Y66.169 E223.16085
G1 X73.449 Y66.285 E223.16816
G1 X73.637 Y66.440 E223.17541
G1 X73.745 Y66.571 E223.18047
G1 X73.261 Y66.571 E223.19489
G1 X73.261 Y69.426 E223.27992
G1 X75.919 Y69.426 E223.35908
G1 X75.919 Y75.727 E223.54675
G1 X79.160 Y75.727 E223.64327
G1 X79.160 Y69.426 E223.83094
G1 X80.126 Y69.426 E223.85971
G1 X80.126 Y66.159 E223.95701
G1 X79.065 Y66.159 E223.98861
G1 X79.065 Y64.488 E224.03838
G1 X87.281 Y64.488 E224.28308
G1 X87.281 Y66.159 E224.33285
G1 X81.358 Y66.159 E224.50926
G1 X81.358 Y69.426 E224.60656
G1 X90.441 Y69.426 E224.87708
G1 X90.441 Y71.673 E224.94400
G1 X94.471 Y71.673 E225.06403
G1 X94.471 Y69.356 E225.13304
G1 X96.061 Y69.356 E225.18039
G1 X96.061 Y75.656 E225.36803
G1 X94.471 Y75.656 E225.41539
G1 X94.471 Y73.345 E225.48421
G1 X90.441 Y73.345 E225.60424
G1 X90.441 Y82.639 E225.88105
G1 X94.471 Y82.639 E226.00108
G1 X94.471 Y80.551 E226.06326
G1 X96.061 Y80.551 E226.11062
G1 X96.061 Y86.413 E226.28521
G1 X94.471 Y86.413 E226.33256
G1 X94.471 Y84.310 E226.39520
G1 X90.441 Y84.310 E226.51523
G1 X90.441 Y86.607 E226.58364
G1 X81.358 Y86.607 E226.85416
G0 F10500 X81.858 Y87.107
;TYPE:WALL-OUTER
G1 F1500 X81.858 Y89.341 E226.92070
G1 X87.781 Y89.341 E227.09710
G1 X87.781 Y92.012 E227.17666
G1 X78.565 Y92.012 E227.45114
G1 X78.565 Y89.341 E227.53069
G1 X79.626 Y89.341 E227.56229
G1 X79.626 Y87.107 E227.62883
G1 X78.660 Y87.107 E227.65760
G1 X78.660 Y80.867 E227.84345
G1 X76.419 Y80.867 E227.91019
G1 X76.419 Y87.107 E228.09604
G1 X67.155 Y87.107 E228.37195
G1 X67.155 Y68.926 E228.91344
G1 X71.833 Y68.926 E229.05277
G1 X71.833 Y67.071 E229.10802
G1 X70.650 Y67.071 E229.14325
G1 X70.650 Y67.159 E229.14587
G1 X68.537 Y67.159 E229.20881
G1 X68.536 Y66.665 E229.22352
G1 X70.650 Y66.665 E229.28648
G1 X70.650 Y66.797 E229.29041
G1 X71.076 Y66.861 E229.30324
G1 X71.141 Y66.650 E229.30982
G1 X71.301 Y66.351 E229.31992
G1 X71.520 Y66.085 E229.33018
G1 X71.786 Y65.865 E229.34046
G1 X72.086 Y65.705 E229.35059
G1 X72.412 Y65.607 E229.36073
G1 X72.756 Y65.573 E229.37102
G1 X73.100 Y65.607 E229.38132
G1 X73.425 Y65.705 E229.39143
G1 X73.726 Y65.866 E229.40159
G1 X73.992 Y66.085 E229.41185
G1 X74.211 Y66.351 E229.42212
G1 X74.372 Y66.652 E229.43228
G1 X74.470 Y66.977 E229.44239
G1 X74.479 Y67.071 E229.44521
G1 X73.761 Y67.071 E229.46659
G1 X73.761 Y68.926 E229.52184
G1 X76.419 Y68.926 E229.60100
G1 X76.419 Y75.227 E229.78867
G1 X78.660 Y75.227 E229.85541
G1 X78.660 Y68.926 E230.04308
G1 X79.626 Y68.926 E230.07185
G1 X79.626 Y66.659 E230.13937
G1 X78.565 Y66.659 E230.17097
G1 X78.565 Y63.988 E230.25052
G1 X87.781 Y63.988 E230.52500
G1 X87.781 Y66.659 E230.60455
G1 X81.858 Y66.659 E230.78096
G1 X81.858 Y68.926 E230.84848
G1 X90.941 Y68.926 E231.11900
G1 X90.941 Y71.173 E231.18593
G1 X93.971 Y71.173 E231.27617
G1 X93.971 Y68.856 E231.34518
G1 X96.561 Y68.856 E231.42232
G1 X96.561 Y76.156 E231.63974
G1 X93.971 Y76.156 E231.71687
G1 X93.971 Y73.845 E231.78570
G1 X90.941 Y73.845 E231.87595
G1 X90.941 Y82.139 E232.12297
G1 X93.971 Y82.139 E232.21321
G1 X93.971 Y80.051 E232.27540
G1 X96.561 Y80.051 E232.35254
G1 X96.561 Y86.913 E232.55691
G1 X93.971 Y86.913 E232.63405
G1 X93.971 Y84.810 E232.69669
G1 X90.941 Y84.810 E232.78693
G1 X90.941 Y87.107 E232.85534
G1 X81.858 Y87.107 E233.12587
G0 F10500 X82.895 Y86.431
;TYPE:FILL
G1 F2040 X79.334 Y82.870 E233.27586
G0 F10500 X78.907 Y80.191
G1 F2040 X89.497 Y69.601 E233.72191
G0 F10500 X87.278 Y69.601
G1 F2040 X90.847 Y73.169 E233.87221
G0 F10500 X93.000 Y73.169
G1 F2040 X94.322 Y71.847 E233.92790
G0 F10500 X94.645 Y71.524
G1 F2040 X95.885 Y70.284 E233.98012
G0 F10500 X95.885 Y71.136
G1 F2040 X94.644 Y69.896 E234.03237
G0 F10500 X94.362 Y73.454
G0 X90.550 Y73.454
G0 X90.265 Y75.905
G1 F2040 X79.738 Y86.431 E234.47575
G0 F10500 X80.017 Y86.716
G0 X80.017 Y89.732
G0 X79.408 Y90.015
G1 F2040 X80.729 Y91.336 E234.53139
G0 F10500 X81.904 Y91.336
G1 F2040 X83.226 Y90.014 E234.58707
G0 F10500 X86.479 Y90.015
G1 F2040 X87.106 Y90.641 E234.61346
G0 F10500 X81.467 Y89.732
G0 X81.467 Y86.716
G0 X86.809 Y86.431
G1 F2040 X90.426 Y82.814 E234.76581
G0 F10500 X93.420 Y82.814
G1 F2040 X95.885 Y85.279 E234.86964
G0 F10500 X95.885 Y84.427
G1 F2040 X94.645 Y85.666 E234.92184
G0 F10500 X94.362 Y84.419
G0 X90.550 Y84.419
G0 X89.966 Y86.431
G1 F2040 X79.333 Y75.798 E235.36971
G0 F10500 X79.334 Y72.693
G1 F2040 X82.426 Y69.601 E235.49994
G0 F10500 X80.207 Y69.601
G1 F2040 X90.265 Y79.659 E235.92359
G0 F10500 X81.467 Y69.317
G0 X81.467 Y66.268
G0 X86.044 Y65.983
G1 F2040 X87.104 Y64.923 E235.96823
G0 F10500 X83.661 Y65.983
G1 F2040 X82.340 Y64.662 E236.02387
G0 F10500 X80.294 Y64.662
G1 F2040 X79.239 Y65.717 E236.06831
G0 F10500 X80.017 Y66.268
G0 X80.017 Y69.317
G0 X79.051 Y75.618
G0 X76.028 Y75.618
G0 X75.356 Y69.600
G1 F2040 X67.829 Y77.126 E236.38533
G0 F10500 X67.829 Y78.436
G1 F2040 X75.743 Y86.350 E236.71867
G0 F10500 X75.743 Y83.355
G1 F2040 X72.667 Y86.431 E236.84823
G0 F10500 X68.753 Y86.431
G1 F2040 X67.829 Y85.507 E236.88715
G0 F10500 X67.829 Y84.198
G1 F2040 X76.127 Y75.900 E237.23666
G0 F10500 X75.743 Y72.208
G1 F2040 X73.136 Y69.601 E237.34646
G0 F10500 X73.085 Y69.549
G1 F2040 X72.507 Y68.971 E237.37081
G0 F10500 X72.224 Y69.317
G0 X68.285 Y69.600
G1 F2040 X67.829 Y70.055 E237.39000
G0 F10500 X67.829 Y71.365
G1 F2040 X76.655 Y80.190 E237.76173
;LAYER:10
G0 F10500 X75.919 Y80.367 Z4.225
;TYPE:WALL-INNER
G1 F1800 X75.919 Y86.607 E237.94757
G1 X67.655 Y86.607 E238.19370
G1 X67.655 Y69.426 E238.70541
G1 X72.333 Y69.426 E238.84474
G1 X72.333 Y66.571 E238.92977
G1 X71.767 Y66.571 E238.94663
G1 X71.875 Y66.440 E238.95169
G1 X72.063 Y66.285 E238.95894
G1 X72.278 Y66.169 E238.96622
G1 X72.513 Y66.099 E238.97352
G1 X72.756 Y66.075 E238.98079
G1 X72.999 Y66.099 E238.98807
G1 X73.233 Y66.169 E238.99534
G1 X73.449 Y66.285 E239.00264
G1 X73.637 Y66.440 E239.00990
G1 X73.745 Y66.571 E239.01496
G1 X73.261 Y66.571 E239.02937
G1 X73.261 Y69.426 E239.11440
G1 X75.919 Y69.426 E239.19357
G1 X75.919 Y75.727 E239.38123
G1 X79.160 Y75.727 E239.47776
G1 X79.160 Y69.426 E239.66543
G1 X80.126 Y69.426 E239.69420
G1 X80.126 Y66.159 E239.79150
G1 X79.065 Y66.159 E239.82310
G1 X79.065 Y64.488 E239.87287
G1 X87.281 Y64.488 E240.11757
G1 X87.281 Y66.159 E240.16734
G1 X81.358 Y66.159 E240.34374
G1 X81.358 Y69.426 E240.44104
G1 X90.441 Y69.426 E240.71157
G1 X90.441 Y71.673 E240.77849
G1 X94.471 Y71.673 E240.89852
G1 X94.471 Y69.356 E240.96753
G1 X96.061 Y69.356 E241.01488
G1 X96.061 Y75.656 E241.20252
G1 X94.471 Y75.656 E241.24987
G1 X94.471 Y73.345 E241.31870
G1 X90.441 Y73.345 E241.43873
G1 X90.441 Y82.639 E241.71553
G1 X94.471 Y82.639 E241.83556
G1 X94.471 Y80.551 E241.89775
G1 X96.061 Y80.551 E241.94511
G1 X96.061 Y86.413 E242.11970
G1 X94.471 Y86.413 E242.16705
G1 X94.471 Y84.310 E242.22969
G1 X90.441 Y84.310 E242.34971
G1 X90.441 Y86.607 E242.41812
G1 X81.358 Y86.607 E242.68865
G1 X81.358 Y89.841 E242.78497
G1 X87.281 Y89.841 E242.96137
G1 X87.281 Y91.512 E243.01114
G1 X79.065 Y91.512 E243.25584
G1 X79.065 Y89.841 E243.30561
G1 X80.126 Y89.841 E243.33721
G1 X80.126 Y86.607 E243.43353
G1 X79.160 Y86.607 E243.46230
G1 X79.160 Y80.367 E243.64815
G1 X75.919 Y80.367 E243.74468
G0 F10500 X76.419 Y80.867
;TYPE:WALL-OUTER
G1 F1500 X76.419 Y87.107 E243.93052
G1 X67.155 Y87.107 E244.20644
G1 X67.155 Y68.926 E244.74793
G1 X71.833 Y68.926 E244.88726
G1 X71.833 Y67.071 E244.94250
G1 X70.650 Y67.071 E244.97774
G1 X70.650 Y67.159 E244.98036
G1 X67.821 Y67.159 E245.06462
G1 X67.820 Y66.665 E245.07933
G1 X70.650 Y66.665 E245.16362
G1 X70.650 Y66.797 E245.16755
G1 X71.076 Y66.861 E245.18038
G1 X71.141 Y66.650 E245.18695
G1 X71.301 Y66.351 E245.19705
G1 X71.520 Y66.085 E245.20732
G1 X71.786 Y65.865 E245.21760
G1 X72.086 Y65.705 E245.22772
G1 X72.412 Y65.607 E245.23786
G1 X72.756 Y65.573 E245.24816
G1 X73.100 Y65.607 E245.25845
G1 X73.425 Y65.705 E245.26856
G1 X73.726 Y65.866 E245.27873
G1 X73.992 Y66.085 E245.28899
G1 X74.211 Y66.351 E245.29925
G1 X74.372 Y66.652 E245.30942
G1 X74.470 Y66.977 E245.31953
G1 X74.479 Y67.071 E245.32234
G1 X73.761 Y67.071 E245.34373
G1 X73.761 Y68.926 E245.39897
G1 X76.419 Y68.926 E245.47814
G1 X76.419 Y75.227 E245.66580
G1 X78.660 Y75.227 E245.73255
G1 X78.660 Y68.926 E245.92021
G1 X79.626 Y68.926 E245.94898
G1 X79.626 Y66.659 E246.01650
G1 X78.565 Y66.659 E246.04810
G1 X78.565 Y63.988 E246.12766
G1 X87.781 Y63.988 E246.40214
G1 X87.781 Y66.659 E246.48169
G1 X81.858 Y66.659 E246.65810
G1 X81.858 Y68.926 E246.72562
G1 X90.941 Y68.926 E246.99614
G1 X90.941 Y71.173 E247.06306
G1 X93.971 Y71.173 E247.15331
G1 X93.971 Y68.856 E247.22231
G1 X96.561 Y68.856 E247.29945
G1 X96.561 Y76.156 E247.51687
G1 X93.971 Y76.156 E247.59401
G1 X93.971 Y73.845 E247.66284
G1 X90.941 Y73.845 E247.75308
G1 X90.941 Y82.139 E248.00011
G1 X93.971 Y82.139 E248.09035
G1 X93.971 Y80.051 E248.15254
G1 X96.561 Y80.051 E248.22968
G1 X96.561 Y86.913 E248.43405
G1 X93.971 Y86.913 E248.51119
G1 X93.971 Y84.810 E248.57382
G1 X90.941 Y84.810 E248.66407
G1 X90.941 Y87.107 E248.73248
G1 X81.858 Y87.107 E249.00300
G1 X81.858 Y89.341 E249.06954
G1 X87.781 Y89.341 E249.24595
G1 X87.781 Y92.012 E249.32550
G1 X78.565 Y92.012 E249.59998
G1 X78.565 Y89.341 E249.67953
G1 X79.626 Y89.341 E249.71113
G1 X79.626 Y87.107 E249.77767
G1 X78.660 Y87.107 E249.80644
G1 X78.660 Y80.867 E249.99229
G1 X76.419 Y80.867 E250.05903
G0 F10500 X76.655 Y80.190
;TYPE:FILL
G1 F2040 X67.829 Y71.365 E250.43076
G0 F10500 X67.829 Y70.055
G1 F2040 X68.285 Y69.600 E250.44995
G0 F10500 X72.224 Y69.317
G0 X72.507 Y68.971
G1 F2040 X73.085 Y69.549 E250.47429
G0 F10500 X73.136 Y69.601
G1 F2040 X75.743 Y72.208 E250.58410
G0 F10500 X75.356 Y69.600
G1 F2040 X67.829 Y77.126 E250.90112
G0 F10500 X67.829 Y78.436
G1 F2040 X75.743 Y86.350 E251.23446
G0 F10500 X75.743 Y83.355
G1 F2040 X72.667 Y86.431 E251.36402
G0 F10500 X68.753 Y86.431
G1 F2040 X67.829 Y85.507 E251.40294
G0 F10500 X67.829 Y84.198
G1 F2040 X76.127 Y75.900 E251.75245
G0 F10500 X79.333 Y75.798
G1 F2040 X89.966 Y86.431 E252.20031
G0 F10500 X86.809 Y86.431
G1 F2040 X90.426 Y82.814 E252.35266
G0 F10500 X93.420 Y82.814
G1 F2040 X95.885 Y85.279 E252.45648
G0 F10500 X95.885 Y84.427
G1 F2040 X94.645 Y85.666 E252.50869
G0 F10500 X94.362 Y84.419
G0 X90.550 Y84.419
G0 X81.467 Y86.716
G0 X81.467 Y89.732
G0 X87.106 Y90.641
G1 F2040 X86.479 Y90.015 E252.53508
G0 F10500 X83.226 Y90.014
G1 F2040 X81.904 Y91.336 E252.59076
G0 F10500 X80.729 Y91.336
G1 F2040 X79.408 Y90.015 E252.64640
G0 F10500 X80.017 Y89.732
G0 X80.017 Y86.716
G0 X79.738 Y86.431
G1 F2040 X90.265 Y75.905 E253.08978
G0 F10500 X90.550 Y73.454
G0 X90.847 Y73.169
G1 F2040 X87.278 Y69.601 E253.24009
G0 F10500 X89.497 Y69.601
G1 F2040 X78.907 Y80.191 E253.68614
G0 F10500 X79.334 Y82.870
G1 F2040 X82.895 Y86.431 E253.83613
G0 F10500 X90.265 Y79.659
G1 F2040 X80.207 Y69.601 E254.25977
G0 F10500 X82.426 Y69.601
G1 F2040 X79.334 Y72.693 E254.39001
G0 F10500 X80.017 Y69.317
G0 X80.017 Y66.268
G0 X79.239 Y65.717
G1 F2040 X80.294 Y64.662 E254.43444
G0 F10500 X82.340 Y64.662
G1 F2040 X83.661 Y65.983 E254.49008
G0 F10500 X86.044 Y65.983
G1 F2040 X87.104 Y64.923 E254.53473
G0 F10500 X81.467 Y66.268
G0 X81.467 Y69.317
G0 X90.550 Y71.564
G0 X94.362 Y71.564
G0 X94.644 Y69.896
G1 F2040 X95.885 Y71.136 E254.58698
G0 F10500 X95.885 Y70.284
G1 F2040 X94.645 Y71.524 E254.63921
G0 F10500 X94.322 Y71.847
G1 F2040 X93.000 Y73.169 E254.69489
;LAYER:11
G0 F10500 X94.471 Y73.345 Z4.605
;TYPE:WALL-INNER
G1 F1800 X90.441 Y73.345 E254.81492
G1 X90.441 Y82.639 E255.09173
G1 X94.471 Y82.639 E255.21175
G1 X94.471 Y80.551 E255.27394
G1 X96.061 Y80.551 E255.32130
G1 X96.061 Y86.413 E255.49589
G1 X94.471 Y86.413 E255.54324
G1 X94.471 Y84.310 E255.60588
G1 X90.441 Y84.310 E255.72590
G1 X90.441 Y86.607 E255.79432
G1 X81.358 Y86.607 E256.06484
G1 X81.358 Y89.841 E256.16116
G1 X87.281 Y89.841 E256.33756
G1 X87.281 Y91.512 E256.38733
G1 X79.065 Y91.512 E256.63203
G1 X79.065 Y89.841 E256.68180
G1 X80.126 Y89.841 E256.71340
G1 X80.126 Y86.607 E256.80972
G1 X79.160 Y86.607 E256.83849
G1 X79.160 Y80.367 E257.02434
G1 X75.919 Y80.367 E257.12087
G1 X75.919 Y86.607 E257.30672
G1 X67.655 Y86.607 E257.55285
G1 X67.655 Y69.426 E258.06455
G1 X72.333 Y69.426 E258.20388
G1 X72.333 Y66.571 E258.28891
G1 X71.767 Y66.571 E258.30577
G1 X71.875 Y66.440 E258.31083
G1 X72.063 Y66.285 E258.31808
G1 X72.278 Y66.169 E258.32536
G1 X72.513 Y66.099 E258.33266
G1 X72.756 Y66.075 E258.33993
G1 X72.999 Y66.099 E258.34721
G1 X73.233 Y66.169 E258.35448
G1 X73.449 Y66.285 E258.36178
G1 X73.637 Y66.440 E258.36904
G1 X73.745 Y66.571 E258.37410
G1 X73.261 Y66.571 E258.38851
G1 X73.261 Y69.426 E258.47354
G1 X75.919 Y69.426 E258.55271
G1 X75.919 Y75.727 E258.74037
G1 X79.160 Y75.727 E258.83690
G1 X79.160 Y69.426 E259.02457
G1 X80.126 Y69.426 E259.05334
G1 X80.126 Y66.159 E259.15064
G1 X79.065 Y66.159 E259.18224
G1 X79.065 Y64.488 E259.23201
G1 X87.281 Y64.488 E259.47671
G1 X87.281 Y66.159 E259.52648
G1 X81.358 Y66.159 E259.70288
G1 X81.358 Y69.426 E259.80019
G1 X90.441 Y69.426 E260.07071
G1 X90.441 Y71.673 E260.13763
G1 X94.471 Y71.673 E260.25766
G1 X94.471 Y69.356 E260.32667
G1 X96.061 Y69.356 E260.37402
G1 X96.061 Y75.656 E260.56166
G1 X94.471 Y75.656 E260.60901
G1 X94.471 Y73.345 E260.67784
G0 F10500 X93.971 Y73.845
;TYPE:WALL-OUTER
G1 F1500 X90.941 Y73.845 E260.76809
G1 X90.941 Y82.139 E261.01511
G1 X93.971 Y82.139 E261.10535
G1 X93.971 Y80.051 E261.16754
G1 X96.561 Y80.051 E261.24468
G1 X96.561 Y86.913 E261.44905
G1 X93.971 Y86.913 E261.52619
G1 X93.971 Y84.810 E261.58883
G1 X90.941 Y84.810 E261.67907
G1 X90.941 Y87.107 E261.74748
G1 X81.858 Y87.107 E262.01800
G1 X81.858 Y89.341 E262.08454
G1 X87.781 Y89.341 E262.26095
G1 X87.781 Y92.012 E262.34050
G1 X78.565 Y92.012 E262.61498
G1 X78.565 Y89.341 E262.69453
G1 X79.626 Y89.341 E262.72613
G1 X79.626 Y87.107 E262.79267
G1 X78.660 Y87.107 E262.82144
G1 X78.660 Y80.867 E263.00729
G1 X76.419 Y80.867 E263.07403
G1 X76.419 Y87.107 E263.25988
G1 X67.155 Y87.107 E263.53580
G1 X67.155 Y68.926 E264.07729
G1 X71.833 Y68.926 E264.21661
G1 X71.833 Y67.071 E264.27186
G1 X70.650 Y67.071 E264.30710
G1 X70.650 Y67.159 E264.30972
G1 X67.106 Y67.159 E264.41527
G1 X67.105 Y66.665 E264.42998
G1 X70.650 Y66.665 E264.53556
G1 X70.650 Y66.797 E264.53950
G1 X71.076 Y66.861 E264.55233
G1 X71.141 Y66.650 E264.55890
G1 X71.301 Y66.351 E264.56900
G1 X71.520 Y66.085 E264.57926
G1 X71.786 Y65.865 E264.58954
G1 X72.086 Y65.705 E264.59967
G1 X72.412 Y65.607 E264.60981
G1 X72.756 Y65.573 E264.62010
G1 X73.100 Y65.607 E264.63040
G1 X73.425 Y65.705 E264.64051
G1 X73.726 Y65.866 E264.65068
G1 X73.992 Y66.085 E264.66094
G1 X74.211 Y66.351 E264.67120
G1 X74.372 Y66.652 E264.68137
G1 X74.470 Y66.977 E264.69148
G1 X74.479 Y67.071 E264.69429
G1 X73.761 Y67.071 E264.71567
G1 X73.761 Y68.926 E264.77092
G1 X76.419 Y68.926 E264.85009
G1 X76.419 Y75.227 E265.03775
G1 X78.660 Y75.227 E265.10450
G1 X78.660 Y68.926 E265.29216
G1 X79.626 Y68.926 E265.32093
G1 X79.626 Y66.659 E265.38845
G1 X78.565 Y66.659 E265.42005
G1 X78.565 Y63.988 E265.49960
G1 X87.781 Y63.988 E265.77409
G1 X87.781 Y66.659 E265.85364
G1 X81.858 Y66.659 E266.03004
G1 X81.858 Y68.926 E266.09756
G1 X90.941 Y68.926 E266.36809
G1 X90.941 Y71.173 E266.43501
G1 X93.971 Y71.173 E266.52525
G1 X93.971 Y68.856 E266.59426
G1 X96.561 Y68.856 E266.67140
G1 X96.561 Y76.156 E266.88882
G1 X93.971 Y76.156 E266.96596
G1 X93.971 Y73.845 E267.03479
G0 F10500 X93.000 Y73.169
;TYPE:FILL
G1 F2040 X94.322 Y71.847 E267.09047
G0 F10500 X94.645 Y71.524
G1 F2040 X95.885 Y70.284 E267.14270
G0 F10500 X95.885 Y71.136
G1 F2040 X94.644 Y69.896 E267.19495
G0 F10500 X94.362 Y71.564
G0 X90.847 Y73.169
G1 F2040 X87.278 Y69.601 E267.34525
G0 F10500 X89.497 Y69.601
G1 F2040 X78.907 Y80.191 E267.79131
G0 F10500 X76.655 Y80.190
G1 F2040 X67.829 Y71.365 E268.16304
G0 F10500 X67.829 Y70.055
G1 F2040 X68.285 Y69.600 E268.18222
G0 F10500 X72.224 Y69.317
G0 X72.507 Y68.971
G1 F2040 X73.085 Y69.549 E268.20657
G0 F10500 X73.136 Y69.601
G1 F2040 X75.743 Y72.208 E268.31637
G0 F10500 X75.356 Y69.600
G1 F2040 X67.829 Y77.126 E268.63339
G0 F10500 X67.829 Y78.436
G1 F2040 X75.743 Y86.350 E268.96673
G0 F10500 X75.743 Y83.355
G1 F2040 X72.667 Y86.431 E269.09629
G0 F10500 X68.753 Y86.431
G1 F2040 X67.829 Y85.507 E269.13521
G0 F10500 X67.829 Y84.198
G1 F2040 X76.127 Y75.900 E269.48472
G0 F10500 X79.333 Y75.798
G1 F2040 X89.966 Y86.431 E269.93258
G0 F10500 X86.809 Y86.431
G1 F2040 X90.426 Y82.814 E270.08493
G0 F10500 X93.420 Y82.814
G1 F2040 X95.885 Y85.279 E270.18876
G0 F10500 X95.885 Y84.427
G1 F2040 X94.645 Y85.666 E270.24097
G0 F10500 X94.362 Y84.419
G0 X90.550 Y84.419
G0 X81.467 Y86.716
G0 X81.467 Y89.732
G0 X87.106 Y90.641
G1 F2040 X86.479 Y90.015 E270.26735
G0 F10500 X83.226 Y90.014
G1 F2040 X81.904 Y91.336 E270.32304
G0 F10500 X80.729 Y91.336
G1 F2040 X79.408 Y90.015 E270.37868
G0 F10500 X80.017 Y89.732
G0 X80.017 Y86.716
G0 X79.738 Y86.431
G1 F2040 X90.265 Y75.905 E270.82205
G0 F10500 X90.265 Y79.659
G1 F2040 X80.207 Y69.601 E271.24570
G0 F10500 X82.426 Y69.601
G1 F2040 X79.334 Y72.693 E271.37593
G0 F10500 X80.017 Y69.317
G0 X80.017 Y66.268
G0 X79.239 Y65.717
G1 F2040 X80.294 Y64.662 E271.42037
G0 F10500 X82.340 Y64.662
G1 F2040 X83.661 Y65.983 E271.47601
G0 F10500 X86.044 Y65.983
G1 F2040 X87.104 Y64.923 E271.52066
G0 F10500 X81.467 Y66.268
G0 X81.467 Y69.317
G0 X79.334 Y82.870
G1 F2040 X82.895 Y86.431 E271.67065
;LAYER:12
M106 S206
G0 F10500 X81.358 Y86.607 Z4.985
;TYPE:WALL-INNER
G1 F1800 X81.358 Y89.841 E271.76697
G1 X87.281 Y89.841 E271.94337
G1 X87.281 Y91.512 E271.99314
G1 X79.065 Y91.512 E272.23784
G1 X79.065 Y89.841 E272.28761
G1 X80.126 Y89.841 E272.31921
G1 X80.126 Y86.607 E272.41553
G1 X79.160 Y86.607 E272.44430
G1 X79.160 Y80.367 E272.63015
G1 X75.919 Y80.367 E272.72668
G1 X75.919 Y86.607 E272.91253
G1 X67.655 Y86.607 E273.15866
G1 X67.655 Y69.426 E273.67036
G1 X72.333 Y69.426 E273.80969
G1 X72.333 Y66.571 E273.89472
G1 X71.767 Y66.571 E273.91158
G1 X71.875 Y66.440 E273.91664
G1 X72.063 Y66.285 E273.92389
G1 X72.278 Y66.169 E273.93117
G1 X72.513 Y66.099 E273.93847
G1 X72.756 Y66.075 E273.94574
G1 X72.999 Y66.099 E273.95302
G1 X73.233 Y66.169 E273.96029
G1 X73.449 Y66.285 E273.96759
G1 X73.637 Y66.440 E273.97485
G1 X73.745 Y66.571 E273.97991
G1 X73.261 Y66.571 E273.99432
G1 X73.261 Y69.426 E274.07935
G1 X75.919 Y69.426 E274.15852
G1 X75.919 Y75.727 E274.34618
G1 X79.160 Y75.727 E274.44271
G1 X79.160 Y69.426 E274.63038
G1 X80.126 Y69.426 E274.65915
G1 X80.126 Y66.159 E274.75645
G1 X79.065 Y66.159 E274.78805
G1 X79.065 Y64.488 E274.83782
G1 X87.281 Y64.488 E275.08252
G1 X87.281 Y66.159 E275.13229
G1 X81.358 Y66.159 E275.30869
G1 X81.358 Y69.426 E275.40599
G1 X90.441 Y69.426 E275.67652
G1 X90.441 Y71.673 E275.74344
G1 X94.471 Y71.673 E275.86347
G1 X94.471 Y69.356 E275.93248
G1 X96.061 Y69.356 E275.97983
G1 X96.061 Y75.656 E276.16747
G1 X94.471 Y75.656 E276.21482
G1 X94.471 Y73.345 E276.28365
G1 X90.441 Y73.345 E276.40368
G1 X90.441 Y82.639 E276.68049
G1 X94.471 Y82.639 E276.80051
G1 X94.471 Y80.551 E276.86270
G1 X96.061 Y80.551 E276.91006
G1 X96.061 Y86.413 E277.08465
G1 X94.471 Y86.413 E277.13200
G1 X94.471 Y84.310 E277.19464
G1 X90.441 Y84.310 E277.31466
G1 X90.441 Y86.607 E277.38308
G1 X81.358 Y86.607 E277.65360
G0 F10500 X81.858 Y87.107
;TYPE:WALL-OUTER
G1 F1560 X81.858 Y89.341 E277.72013
G1 X87.781 Y89.341 E277.89654
G1 X87.781 Y92.012 E277.97609
G1 X78.565 Y92.012 E278.25058
G1 X78.565 Y89.341 E278.33013
G1 X79.626 Y89.341 E278.36173
G1 X79.626 Y87.107 E278.42826
G1 X78.660 Y87.107 E278.45703
G1 X78.660 Y80.867 E278.64288
G1 X76.419 Y80.867 E278.70963
G1 X76.419 Y87.107 E278.89548
G1 X67.155 Y87.107 E279.17139
G1 X67.155 Y68.926 E279.71288
G1 X71.833 Y68.926 E279.85221
G1 X71.833 Y67.071 E279.90746
G1 X70.650 Y67.071 E279.94269
G1 X70.650 Y67.159 E279.94531
G1 X66.390 Y67.159 E280.07219
G1 X66.389 Y66.665 E280.08690
G1 X70.650 Y66.665 E280.21381
G1 X70.650 Y66.797 E280.21774
G1 X71.076 Y66.861 E280.23057
G1 X71.141 Y66.650 E280.23714
G1 X71.301 Y66.351 E280.24724
G1 X71.520 Y66.085 E280.25751
G1 X71.786 Y65.865 E280.26779
G1 X72.086 Y65.705 E280.27791
G1 X72.412 Y65.607 E280.28805
G1 X72.756 Y65.573 E280.29835
G1 X73.100 Y65.607 E280.30864
G1 X73.425 Y65.705 E280.31875
G1 X73.726 Y65.866 E280.32892
G1 X73.992 Y66.085 E280.33918
G1 X74.211 Y66.351 E280.34944
G1 X74.372 Y66.652 E280.35961
G1 X74.470 Y66.977 E280.36972
G1 X74.479 Y67.071 E280.37253
G1 X73.761 Y67.071 E280.39392
G1 X73.761 Y68.926 E280.44917
G1 X76.419 Y68.926 E280.52833
G1 X76.419 Y75.227 E280.71599
G1 X78.660 Y75.227 E280.78274
G1 X78.660 Y68.926 E280.97040
G1 X79.626 Y68.926 E280.99918
G1 X79.626 Y66.659 E281.06669
G1 X78.565 Y66.659 E281.09829
G1 X78.565 Y63.988 E281.17785
G1 X87.781 Y63.988 E281.45233
G1 X87.781 Y66.659 E281.53188
G1 X81.858 Y66.659 E281.70829
G1 X81.858 Y68.926 E281.77581
G1 X90.941 Y68.926 E282.04633
G1 X90.941 Y71.173 E282.11325
G1 X93.971 Y71.173 E282.20350
G1 X93.971 Y68.856 E282.27250
G1 X96.561 Y68.856 E282.34964
G1 X96.561 Y76.156 E282.56706
G1 X93.971 Y76.156 E282.64420
G1 X93.971 Y73.845 E282.71303
G1 X90.941 Y73.845 E282.80327
G1 X90.941 Y82.139 E283.05030
G1 X93.971 Y82.139 E283.14054
G1 X93.971 Y80.051 E283.20273
G1 X96.561 Y80.051 E283.27987
G1 X96.561 Y86.913 E283.48424
G1 X93.971 Y86.913 E283.56138
G1 X93.971 Y84.810 E283.62401
G1 X90.941 Y84.810 E283.71426
G1 X90.941 Y87.107 E283.78267
G1 X81.858 Y87.107 E284.05319
G0 F10500 X82.895 Y86.431
;TYPE:FILL
G1 F2040 X79.334 Y82.870 E284.20318
G0 F10500 X78.907 Y80.191
G1 F2040 X89.497 Y69.601 E284.64923
G0 F10500 X87.278 Y69.601
G1 F2040 X90.847 Y73.169 E284.79954
G0 F10500 X93.000 Y73.169
G1 F2040 X94.322 Y71.847 E284.85522
G0 F10500 X94.645 Y71.524
G1 F2040 X95.885 Y70.284 E284.90745
G0 F10500 X95.885 Y71.136
G1 F2040 X94.644 Y69.896 E284.95970
G0 F10500 X94.362 Y73.454
G0 X90.550 Y73.454
G0 X90.265 Y75.905
G1 F2040 X79.738 Y86.431 E285.40308
G0 F10500 X80.017 Y86.716
G0 X80.017 Y89.732
G0 X79.408 Y90.015
G1 F2040 X80.729 Y91.336 E285.45872
G0 F10500 X81.904 Y91.336
G1 F2040 X83.226 Y90.014 E285.51440
G0 F10500 X86.479 Y90.015
G1 F2040 X87.106 Y90.641 E285.54079
G0 F10500 X81.467 Y89.732
G0 X81.467 Y86.716
G0 X86.809 Y86.431
G1 F2040 X90.426 Y82.814 E285.69314
G0 F10500 X93.420 Y82.814
G1 F2040 X95.885 Y85.279 E285.79696
G0 F10500 X95.885 Y84.427
G1 F2040 X94.645 Y85.666 E285.84917
G0 F10500 X94.362 Y84.419
G0 X90.550 Y84.419
G0 X89.966 Y86.431
G1 F2040 X79.333 Y75.798 E286.29703
G0 F10500 X79.334 Y72.693
G1 F2040 X82.426 Y69.601 E286.42727
G0 F10500 X80.207 Y69.601
G1 F2040 X90.265 Y79.659 E286.85091
G0 F10500 X81.467 Y69.317
G0 X81.467 Y66.268
G0 X86.044 Y65.983
G1 F2040 X87.104 Y64.923 E286.89556
G0 F10500 X83.661 Y65.983
G1 F2040 X82.340 Y64.662 E286.95120
G0 F10500 X80.294 Y64.662
G1 F2040 X79.239 Y65.717 E286.99564
G0 F10500 X80.017 Y66.268
G0 X80.017 Y69.317
G0 X79.051 Y75.618
G0 X76.028 Y75.618
G0 X75.356 Y69.600
G1 F2040 X67.829 Y77.126 E287.31265
G0 F10500 X67.829 Y78.436
G1 F2040 X75.743 Y86.350 E287.64599
G0 F10500 X75.743 Y83.355
G1 F2040 X72.667 Y86.431 E287.77555
G0 F10500 X68.753 Y86.431
G1 F2040 X67.829 Y85.507 E287.81447
G0 F10500 X67.829 Y84.198
G1 F2040 X76.127 Y75.900 E288.16398
G0 F10500 X75.743 Y72.208
G1 F2040 X73.136 Y69.601 E288.27379
G0 F10500 X73.085 Y69.549
G1 F2040 X72.507 Y68.971 E288.29814
G0 F10500 X72.224 Y69.317
G0 X68.285 Y69.600
G1 F2040 X67.829 Y70.055 E288.31732
G0 F10500 X67.829 Y71.365
G1 F2040 X76.655 Y80.190 E288.68905
;LAYER:13
G0 F10500 X75.919 Y80.367 Z5.365
;TYPE:WALL-INNER
G1 F1800 X75.919 Y86.607 E288.87490
G1 X67.655 Y86.607 E289.12103
G1 X67.655 Y69.426 E289.63274
G1 X72.333 Y69.426 E289.77207
G1 X72.333 Y66.571 E289.85710
G1 X71.767 Y66.571 E289.87396
G1 X71.875 Y66.440 E289.87901
G1 X72.063 Y66.285 E289.88627
G1 X72.278 Y66.169 E289.89354
G1 X72.513 Y66.099 E289.90085
G1 X72.756 Y66.075 E289.90812
G1 X72.999 Y66.099 E289.91539
G1 X73.233 Y66.169 E289.92267
G1 X73.449 Y66.285 E289.92997
G1 X73.637 Y66.440 E289.93723
G1 X73.745 Y66.571 E289.94228
G1 X73.261 Y66.571 E289.95670
G1 X73.261 Y69.426 E290.04173
G1 X75.919 Y69.426 E290.12089
G1 X75.919 Y75.727 E290.30856
G1 X79.160 Y75.727 E290.40509
G1 X79.160 Y69.426 E290.59275
G1 X80.126 Y69.426 E290.62152
G1 X80.126 Y66.159 E290.71883
G1 X79.065 Y66.159 E290.75043
G1 X79.065 Y64.488 E290.80019
G1 X87.281 Y64.488 E291.04489
G1 X87.281 Y66.159 E291.09466
G1 X81.358 Y66.159 E291.27107
G1 X81.358 Y69.426 E291.36837
G1 X90.441 Y69.426 E291.63889
G1 X90.441 Y71.673 E291.70582
G1 X94.471 Y71.673 E291.82584
G1 X94.471 Y69.356 E291.89485
G1 X96.061 Y69.356 E291.94221
G1 X96.061 Y75.656 E292.12984
G1 X94.471 Y75.656 E292.17720
G1 X94.471 Y73.345 E292.24603
G1 X90.441 Y73.345 E292.36605
G1 X90.441 Y82.639 E292.64286
G1 X94.471 Y82.639 E292.76289
G1 X94.471 Y80.551 E292.82508
G1 X96.061 Y80.551 E292.87243
G1 X96.061 Y86.413 E293.04702
G1 X94.471 Y86.413 E293.09438
G1 X94.471 Y84.310 E293.15701
G1 X90.441 Y84.310 E293.27704
G1 X90.441 Y86.607 E293.34545
G1 X81.358 Y86.607 E293.61597
G1 X81.358 Y89.841 E293.71229
G1 X87.281 Y89.841 E293.88870
G1 X87.281 Y91.512 E293.93847
G1 X79.065 Y91.512 E294.18317
G1 X79.065 Y89.841 E294.23294
G1 X80.126 Y89.841 E294.26454
G1 X80.126 Y86.607 E294.36086
G1 X79.160 Y86.607 E294.38963
G1 X79.160 Y80.367 E294.57548
G1 X75.919 Y80.367 E294.67200
G0 F10500 X76.419 Y80.867
;TYPE:WALL-OUTER
G1 F1560 X76.419 Y87.107 E294.85785
G1 X67.155 Y87.107 E295.13376
G1 X67.155 Y68.926 E295.67526
G1 X71.833 Y68.926 E295.81458
G1 X71.833 Y67.071 E295.86983
G1 X70.650 Y67.071 E295.90506
G1 X70.650 Y67.159 E295.90769
G1 X65.675 Y67.159 E296.05586
G1 X65.674 Y66.665 E296.07057
G1 X70.650 Y66.665 E296.21877
G1 X70.650 Y66.797 E296.22270
G1 X71.076 Y66.861 E296.23553
G1 X71.141 Y66.650 E296.24211
G1 X71.301 Y66.351 E296.25221
G1 X71.520 Y66.085 E296.26247
G1 X71.786 Y65.865 E296.27275
G1 X72.086 Y65.705 E296.28288
G1 X72.412 Y65.607 E296.29302
G1 X72.756 Y65.573 E296.30331
G1 X73.100 Y65.607 E296.31361
G1 X73.425 Y65.705 E296.32372
G1 X73.726 Y65.866 E296.33389
G1 X73.992 Y66.085 E296.34415
G1 X74.211 Y66.351 E296.35441
G1 X74.372 Y66.652 E296.36458
G1 X74.470 Y66.977 E296.37469
G1 X74.479 Y67.071 E296.37750
G1 X73.761 Y67.071 E296.39888
G1 X73.761 Y68.926 E296.45413
G1 X76.419 Y68.926 E296.53330
G1 X76.419 Y75.227 E296.72096
G1 X78.660 Y75.227 E296.78771
G1 X78.660 Y68.926 E296.97537
G1 X79.626 Y68.926 E297.00414
G1 X79.626 Y66.659 E297.07166
G1 X78.565 Y66.659 E297.10326
G1 X78.565 Y63.988 E297.18281
G1 X87.781 Y63.988 E297.45730
G1 X87.781 Y66.659 E297.53685
G1 X81.858 Y66.659 E297.71325
G1 X81.858 Y68.926 E297.78077
G1 X90.941 Y68.926 E298.05130
G1 X90.941 Y71.173 E298.11822
G1 X93.971 Y71.173 E298.20846
G1 X93.971 Y68.856 E298.27747
G1 X96.561 Y68.856 E298.35461
G1 X96.561 Y76.156 E298.57203
G1 X93.971 Y76.156 E298.64917
G1 X93.971 Y73.845 E298.71800
G1 X90.941 Y73.845 E298.80824
G1 X90.941 Y82.139 E299.05526
G1 X93.971 Y82.139 E299.14551
G1 X93.971 Y80.051 E299.20769
G1 X96.561 Y80.051 E299.28483
G1 X96.561 Y86.913 E299.48921
G1 X93.971 Y86.913 E299.56635
G1 X93.971 Y84.810 E299.62898
G1 X90.941 Y84.810 E299.71922
G1 X90.941 Y87.107 E299.78764
G1 X81.858 Y87.107 E300.05816
G1 X81.858 Y89.341 E300.12470
G1 X87.781 Y89.341 E300.30110
G1 X87.781 Y92.012 E300.38065
G1 X78.565 Y92.012 E300.65514
G1 X78.565 Y89.341 E300.73469
G1 X79.626 Y89.341 E300.76629
G1 X79.626 Y87.107 E300.83282
G1 X78.660 Y87.107 E300.86160
G1 X78.660 Y80.867 E301.04744
G1 X76.419 Y80.867 E301.11419
G0 F10500 X76.655 Y80.190
;TYPE:FILL
G1 F2040 X67.829 Y71.365 E301.48592
G0 F10500 X67.829 Y70.055
G1 F2040 X68.285 Y69.600 E301.50510
G0 F10500 X72.224 Y69.317
G0 X72.507 Y68.971
G1 F2040 X73.085 Y69.549 E301.52945
G0 F10500 X73.136 Y69.601
G1 F2040 X75.743 Y72.208 E301.63926
G0 F10500 X75.356 Y69.600
G1 F2040 X67.829 Y77.126 E301.95627
G0 F10500 X67.829 Y78.436
G1 F2040 X75.743 Y86.350 E302.28961
G0 F10500 X75.743 Y83.355
G1 F2040 X72.667 Y86.431 E302.41917
G0 F10500 X68.753 Y86.431
G1 F2040 X67.829 Y85.507 E302.45809
G0 F10500 X67.829 Y84.198
G1 F2040 X76.127 Y75.900 E302.80760
G0 F10500 X79.333 Y75.798
G1 F2040 X89.966 Y86.431 E303.25547
G0 F10500 X86.809 Y86.431
G1 F2040 X90.426 Y82.814 E303.40782
G0 F10500 X93.420 Y82.814
G1 F2040 X95.885 Y85.279 E303.51164
G0 F10500 X95.885 Y84.427
G1 F2040 X94.645 Y85.666 E303.56385
G0 F10500 X94.362 Y84.419
G0 X90.550 Y84.419
G0 X81.467 Y86.716
G0 X81.467 Y89.732
G0 X87.106 Y90.641
G1 F2040 X86.479 Y90.015 E303.59024
G0 F10500 X83.226 Y90.014
G1 F2040 X81.904 Y91.336 E303.64592
G0 F10500 X80.729 Y91.336
G1 F2040 X79.408 Y90.015 E303.70156
G0 F10500 X80.017 Y89.732
G0 X80.017 Y86.716
G0 X79.738 Y86.431
G1 F2040 X90.265 Y75.905 E304.14494
G0 F10500 X90.550 Y73.454
G0 X90.847 Y73.169
G1 F2040 X87.278 Y69.601 E304.29524
G0 F10500 X89.497 Y69.601
G1 F2040 X78.907 Y80.191 E304.74129
G0 F10500 X79.334 Y82.870
G1 F2040 X82.895 Y86.431 E304.89128
G0 F10500 X90.265 Y79.659
G1 F2040 X80.207 Y69.601 E305.31493
G0 F10500 X82.426 Y69.601
G1 F2040 X79.334 Y72.693 E305.44516
G0 F10500 X80.017 Y69.317
G0 X80.017 Y66.268
G0 X79.239 Y65.717
G1 F2040 X80.294 Y64.662 E305.48960
G0 F10500 X82.340 Y64.662
G1 F2040 X83.661 Y65.983 E305.54524
G0 F10500 X86.044 Y65.983
G1 F2040 X87.104 Y64.923 E305.58989
G0 F10500 X81.467 Y66.268
G0 X81.467 Y69.317
G0 X90.550 Y71.564
G0 X94.362 Y71.564
G0 X94.644 Y69.896
G1 F2040 X95.885 Y71.136 E305.64214
G0 F10500 X95.885 Y70.284
G1 F2040 X94.645 Y71.524 E305.69437
G0 F10500 X94.322 Y71.847
G1 F2040 X93.000 Y73.169 E305.75005
;LAYER:14
G0 F10500 X94.471 Y73.345 Z5.745
;TYPE:WALL-INNER
G1 F1800 X90.441 Y73.345 E305.87008
G1 X90.441 Y82.639 E306.14688
G1 X94.471 Y82.639 E306.26691
G1 X94.471 Y80.551 E306.32910
G1 X96.061 Y80.551 E306.37645
G1 X96.061 Y86.413 E306.55104
G1 X94.471 Y86.413 E306.59840
G1 X94.471 Y84.310 E306.66103
G1 X90.441 Y84.310 E306.78106
G1 X90.441 Y86.607 E306.84947
G1 X81.358 Y86.607 E307.12000
G1 X81.358 Y89.841 E307.21631
G1 X87.281 Y89.841 E307.39272
G1 X87.281 Y91.512 E307.44249
G1 X79.065 Y91.512 E307.68719
G1 X79.065 Y89.841 E307.73696
G1 X80.126 Y89.841 E307.76856
G1 X80.126 Y86.607 E307.86488
G1 X79.160 Y86.607 E307.89365
G1 X79.160 Y80.367 E308.07950
G1 X75.919 Y80.367 E308.17602
G1 X75.919 Y86.607 E308.36187
G1 X67.655 Y86.607 E308.60800
G1 X67.655 Y69.426 E309.11971
G1 X72.333 Y69.426 E309.25904
G1 X72.333 Y66.571 E309.34407
G1 X71.767 Y66.571 E309.36093
